( Made using CamBam - http://www.cambam.co.uk )
( 4 Rings4 5/10/2020 4:10:48 PM )
( Post processor: Default )
( T0 : 0.0 )
G21 G90 G64 G40
G0 Z3.0
( T0 : 0.0 )
T0 M6
( Profile2 )
G17
M3 S1000
G0 X80.0 Y305.9412
G1 F300.0 Z11.6
G2 F800.0 X448.3619 Y-288.3619 I172.0287 J-304.6837
G0 Z3.0
G0 X337.6138 Y-338.323
G1 F300.0 Z11.6
G2 F800.0 X-37.4589 Y-199.5001 I-89.8477 J333.3473
G0 Z3.0
G0 X37.7998 Y-200.1065
G1 F300.0 Z11.6
G2 F800.0 X-304.9872 Y-81.5664 I-33.9518 J456.7155
G0 Z3.0
G0 X-375.0379 Y0.1072
G1 F300.0 Z11.6
G2 F800.0 X417.0523 Y417.7616 I375.1638 J248.429
G0 Z3.0
G0 X394.3556 Y319.882
G1 F300.0 Z11.6
G2 F800.0 X188.3424 Y-102.6403 I-393.3628 J-69.6894
G0 Z3.0
G0 X88.4823 Y-88.8907
G1 F300.0 Z11.6
G2 F800.0 X-245.4083 Y-1.4185 I-88.869 J341.7618
G0 Z3.0
G0 X-198.501 Y-39.4465
G1 F300.0 Z11.6
G2 F800.0 X-79.0457 Y305.3581 I448.039 J37.8744
G0 Z3.0
G0 X0.7093 Y375.2052
G1 F300.0 Z11.6
G2 F800.0 X418.5829 Y-417.2274 I248.7399 J-375.2269
G0 Z3.0
G0 X319.3866 Y-394.4446
G1 F300.0 Z11.6
G2 F800.0 X-101.9733 Y-188.9733 I-70.023 J391.1807
G0 Z3.0
G0 X-88.6772 Y-89.0406
G1 F300.0 Z11.6
G2 F800.0 X0.453 Y244.4409 I338.4211 J88.2014
G0 Z3.0
G0 X-37.8427 Y198.164
G1 F300.0 Z11.6
G2 F800.0 X306.5888 Y79.2227 I43.8402 J-431.2217
G0 Z3.0
G0 X373.9285 Y-1.1348
G1 F300.0 Z11.6
G2 F800.0 X-417.0523 Y-418.1871 I-373.354 J-250.5101
G0 Z3.0
G0 X-393.5004 Y-319.0787
G1 F300.0 Z11.6
G2 F800.0 X-187.851 Y102.6594 I389.2802 J71.1867
G0 Z3.0
G0 X-88.4062 Y88.3955
G1 F300.0 Z11.6
G2 F800.0 X245.4286 Y-0.8702 I89.4474 J-334.3545
G0 Z3.0
G0 X198.3875 Y38.3791
G1 F300.0 Z11.6
G2 F800.0 X78.9846 Y-306.4058 I-444.2372 J-39.2233
G0 Z3.0
G0 X0.5674 Y-374.4959
G1 F300.0 Z11.6
G2 F800.0 X-417.0523 Y418.1871 I-249.3115 J375.0035
G0 Z3.0
G0 X-317.7541 Y394.0151
G1 F300.0 Z11.6
G2 F800.0 X101.4142 Y189.7541 I69.8875 J-388.805
G0 Z3.0
G0 X89.2598 Y88.7218
G1 F300.0 Z11.6
G2 F800.0 X0.9079 Y-245.5786 I-346.3389 J-87.2918
G0 Z3.0
G0 X-80.5734 Y-305.2709
G1 F300.0 Z11.6
G2 F800.0 X-448.8277 Y287.1136 I-170.2189 J304.8383
G0 Z3.0
G0 X-338.1812 Y338.1812
G1 F300.0 Z11.6
G2 F800.0 X37.6822 Y199.2272 I88.9244 J-337.2865
G0 Z3.0
G0 X-68.848 Y143.409
G1 F300.0 Z11.6
G2 F800.0 X278.9931 Y37.0594 I74.3104 J-378.973
G0 Z3.0
G0 X342.1531 Y-43.1238
G1 F300.0 Z11.6
G2 F800.0 X-352.9341 Y-438.0468 I-341.9716 J-207.2685
G0 Z3.0
G0 X-339.1863 Y-338.2009
G1 F300.0 Z11.6
G2 F800.0 X-198.4095 Y37.3686 I338.7067 J87.2095
G0 Z3.0
G0 X-306.0312 Y80.7547
G1 F300.0 Z11.6
G2 F800.0 X285.8369 Y450.3881 I306.1607 J168.4414
G0 Z3.0
G0 X339.0323 Y337.6138
G1 F300.0 Z11.6
G2 F800.0 X200.0149 Y-38.3007 I-337.4801 J-88.8584
G0 Z3.0
G0 X306.9732 Y-80.5734
G1 F300.0 Z11.6
G2 F800.0 X-287.681 Y-449.9626 I-306.8788 J-169.3179
G0 Z3.0
G0 X-339.1863 Y-338.2009
G1 F300.0 Z11.2
G2 F800.0 X-198.4095 Y37.3686 I338.7067 J87.2095
G0 Z3.0
G0 X-88.6772 Y-89.0406
G1 F300.0 Z11.2
G2 F800.0 X0.453 Y244.4409 I338.4211 J88.2014
G0 Z3.0
G0 X-68.848 Y143.409
G1 F300.0 Z11.2
G2 F800.0 X278.9931 Y37.0594 I74.3104 J-378.973
G0 Z3.0
G0 X394.3556 Y319.882
G1 F300.0 Z11.2
G2 F800.0 X188.3424 Y-102.6403 I-393.3628 J-69.6894
G0 Z3.0
G0 X337.6138 Y-338.323
G1 F300.0 Z11.2
G2 F800.0 X-37.4589 Y-199.5001 I-89.8477 J333.3473
G0 Z3.0
G0 X0.5674 Y-374.4959
G1 F300.0 Z11.2
G2 F800.0 X-417.0523 Y418.1871 I-249.3115 J375.0035
G0 Z3.0
G0 X-317.7541 Y394.0151
G1 F300.0 Z11.2
G2 F800.0 X101.4142 Y189.7541 I69.8875 J-388.805
G0 Z3.0
G0 X339.0323 Y337.6138
G1 F300.0 Z11.2
G2 F800.0 X200.0149 Y-38.3007 I-337.4801 J-88.8584
G0 Z3.0
G0 X-68.848 Y143.409
G1 F300.0 Z10.8
G2 F800.0 X278.9931 Y37.0594 I74.3104 J-378.973
G0 Z3.0
G0 X0.5674 Y-374.4959
G1 F300.0 Z10.8
G2 F800.0 X-417.0523 Y418.1871 I-249.3115 J375.0035
G0 Z3.0
G0 X0.5674 Y-374.4959
G1 F300.0 Z10.4
G2 F800.0 X-417.0523 Y418.1871 I-249.3115 J375.0035
G0 Z3.0
G0 X0.5674 Y-374.4959
G1 F300.0 Z10.0
G2 F800.0 X-417.0523 Y418.1871 I-249.3115 J375.0035
G0 Z3.0
G0 X0.5674 Y-374.4959
G1 F300.0 Z9.6
G2 F800.0 X-417.0523 Y418.1871 I-249.3115 J375.0035
G0 Z3.0
G0 X0.5674 Y-374.4959
G1 F300.0 Z9.2
G2 F800.0 X-417.0523 Y418.1871 I-249.3115 J375.0035
G0 Z3.0
G0 X0.5674 Y-374.4959
G1 F300.0 Z8.8
G2 F800.0 X-417.0523 Y418.1871 I-249.3115 J375.0035
G0 Z3.0
G0 X0.5674 Y-374.4959
G1 F300.0 Z8.4
G2 F800.0 X-417.0523 Y418.1871 I-249.3115 J375.0035
G0 Z3.0
G0 X0.5674 Y-374.4959
G1 F300.0 Z8.0
G2 F800.0 X-417.0523 Y418.1871 I-249.3115 J375.0035
G0 Z3.0
G0 X0.5674 Y-374.4959
G1 F300.0 Z7.6
G2 F800.0 X-417.0523 Y418.1871 I-249.3115 J375.0035
G0 Z3.0
G0 X0.5674 Y-374.4959
G1 F300.0 Z7.2
G2 F800.0 X-417.0523 Y418.1871 I-249.3115 J375.0035
G0 Z3.0
G0 X0.5674 Y-374.4959
G1 F300.0 Z6.8
G2 F800.0 X-417.0523 Y418.1871 I-249.3115 J375.0035
G0 Z3.0
G0 X0.5674 Y-374.4959
G1 F300.0 Z6.4
G2 F800.0 X-417.0523 Y418.1871 I-249.3115 J375.0035
G0 Z3.0
G0 X0.5674 Y-374.4959
G1 F300.0 Z6.0
G2 F800.0 X-417.0523 Y418.1871 I-249.3115 J375.0035
G0 Z3.0
G0 X0.5674 Y-374.4959
G1 F300.0 Z5.6
G2 F800.0 X-417.0523 Y418.1871 I-249.3115 J375.0035
G0 Z3.0
G0 X0.5674 Y-374.4959
G1 F300.0 Z5.2
G2 F800.0 X-417.0523 Y418.1871 I-249.3115 J375.0035
G0 Z3.0
G0 X0.5674 Y-374.4959
G1 F300.0 Z4.8
G2 F800.0 X-417.0523 Y418.1871 I-249.3115 J375.0035
G0 Z3.0
G0 X0.5674 Y-374.4959
G1 F300.0 Z4.4
G2 F800.0 X-417.0523 Y418.1871 I-249.3115 J375.0035
G0 Z3.0
G0 X0.5674 Y-374.4959
G1 F300.0 Z4.0
G2 F800.0 X-417.0523 Y418.1871 I-249.3115 J375.0035
G0 Z3.0
G0 X0.5674 Y-374.4959
G1 F300.0 Z3.6
G2 F800.0 X-417.0523 Y418.1871 I-249.3115 J375.0035
G0 Z3.0
G0 X0.5674 Y-374.4959
G1 F300.0 Z3.2
G2 F800.0 X-417.0523 Y418.1871 I-249.3115 J375.0035
G0 Z3.0
G0 X0.5674 Y-374.4959
G2 X-417.0523 Y418.1871 I-249.3115 J375.0035
G0 X-393.5004 Y-319.0787
G1 F300.0 Z11.2
G2 F800.0 X-187.851 Y102.6594 I389.2802 J71.1867
G0 Z3.0
G0 X319.3866 Y-394.4446
G1 F300.0 Z11.2
G2 F800.0 X-101.9733 Y-188.9733 I-70.023 J391.1807
G0 Z3.0
G0 X-143.0046 Y-70.1753
G1 F300.0 Z11.6
G2 F800.0 X-37.1274 Y277.7898 I379.1984 J74.7097
G0 Z3.0
G0 X40.0 Y340.0
G1 F300.0 Z11.6
G2 F800.0 X438.6791 Y-352.7037 I209.9408 J-340.2504
G0 Z3.0
G0 X288.9822 Y-448.3528
G1 F300.0 Z11.6
G2 F800.0 X-167.8657 Y-167.9568 I-37.0936 J451.9317
G0 Z3.0
G0 X-143.0046 Y-70.1753
G1 F300.0 Z11.2
G2 F800.0 X-37.1274 Y277.7898 I379.1984 J74.7097
G0 Z3.0
G0 X-338.1812 Y338.1812
G1 F300.0 Z11.2
G2 F800.0 X37.6822 Y199.2272 I88.9244 J-337.2865
G0 Z3.0
G0 X88.4823 Y-88.8907
G1 F300.0 Z11.2
G2 F800.0 X-245.4083 Y-1.4185 I-88.869 J341.7618
G0 Z3.0
G0 X-143.0046 Y-70.1753
G1 F300.0 Z10.8
G2 F800.0 X-37.1274 Y277.7898 I379.1984 J74.7097
G0 Z3.0
G0 X37.7998 Y-200.1065
G1 F300.0 Z11.2
G2 F800.0 X-304.9872 Y-81.5664 I-33.9518 J456.7155
G0 Z3.0
G0 X306.9732 Y-80.5734
G1 F300.0 Z11.2
G2 F800.0 X-287.681 Y-449.9626 I-306.8788 J-169.3179
G0 Z3.0
G0 X288.9822 Y-448.3528
G1 F300.0 Z11.2
G2 F800.0 X-167.8657 Y-167.9568 I-37.0936 J451.9317
G0 Z3.0
G0 X306.9732 Y-80.5734
G1 F300.0 Z10.8
G2 F800.0 X-287.681 Y-449.9626 I-306.8788 J-169.3179
G0 Z3.0
G0 X288.9822 Y-448.3528
G1 F300.0 Z10.8
G2 F800.0 X-167.8657 Y-167.9568 I-37.0936 J451.9317
G0 Z3.0
G0 X319.3866 Y-394.4446
G1 F300.0 Z10.8
G2 F800.0 X-101.9733 Y-188.9733 I-70.023 J391.1807
G0 Z3.0
G0 X306.9732 Y-80.5734
G1 F300.0 Z10.4
G2 F800.0 X-287.681 Y-449.9626 I-306.8788 J-169.3179
G0 Z3.0
G0 X-447.1255 Y-289.3832
G1 F300.0 Z11.6
G2 F800.0 X-167.2071 Y167.2381 I440.6195 J43.9997
G0 Z3.0
G0 X-198.501 Y-39.4465
G1 F300.0 Z11.2
G2 F800.0 X-79.0457 Y305.3581 I448.039 J37.8744
G0 Z3.0
G0 X-80.5734 Y-305.2709
G1 F300.0 Z11.2
G2 F800.0 X-448.8277 Y287.1136 I-170.2189 J304.8383
G0 Z3.0
G0 X-393.5004 Y-319.0787
G1 F300.0 Z10.8
G2 F800.0 X-187.851 Y102.6594 I389.2802 J71.1867
G0 Z3.0
G0 X-339.1863 Y-338.2009
G1 F300.0 Z10.8
G2 F800.0 X-198.4095 Y37.3686 I338.7067 J87.2095
G0 Z3.0
G0 X-342.3916 Y43.1686
G1 F300.0 Z11.6
G2 F800.0 X353.2178 Y437.6212 I342.6128 J206.3822
G0 Z3.0
G0 X447.551 Y289.3832
G1 F300.0 Z11.6
G2 F800.0 X168.0105 Y-166.9916 I-441.026 J-43.661
G0 Z3.0
G0 X69.3334 Y-143.5713
G1 F300.0 Z11.6
G2 F800.0 X-277.3256 Y-39.01 I-71.8932 J388.5788
G0 Z3.0
G0 X-342.3916 Y43.1686
G1 F300.0 Z11.2
G2 F800.0 X353.2178 Y437.6212 I342.6128 J206.3822
G0 Z3.0
G0 X447.551 Y289.3832
G1 F300.0 Z11.2
G2 F800.0 X168.0105 Y-166.9916 I-441.026 J-43.661
G0 Z3.0
G0 X69.3334 Y-143.5713
G1 F300.0 Z11.2
G2 F800.0 X-277.3256 Y-39.01 I-71.8932 J388.5788
G0 Z3.0
G0 X-447.1255 Y-289.3832
G1 F300.0 Z11.2
G2 F800.0 X-167.2071 Y167.2381 I440.6195 J43.9997
G0 Z3.0
G0 X-198.501 Y-39.4465
G1 F300.0 Z10.8
G2 F800.0 X-79.0457 Y305.3581 I448.039 J37.8744
G0 Z3.0
G0 X-80.5734 Y-305.2709
G1 F300.0 Z10.8
G2 F800.0 X-448.8277 Y287.1136 I-170.2189 J304.8383
G0 Z3.0
G0 X-393.5004 Y-319.0787
G1 F300.0 Z10.4
G2 F800.0 X-187.851 Y102.6594 I389.2802 J71.1867
G0 Z3.0
G0 X-339.1863 Y-338.2009
G1 F300.0 Z10.4
G2 F800.0 X-198.4095 Y37.3686 I338.7067 J87.2095
G0 Z3.0
G0 X89.2598 Y88.7218
G1 F300.0 Z11.2
G2 F800.0 X0.9079 Y-245.5786 I-346.3389 J-87.2918
G0 Z3.0
G0 X37.7998 Y-200.1065
G1 F300.0 Z10.8
G2 F800.0 X-304.9872 Y-81.5664 I-33.9518 J456.7155
G0 Z3.0
G0 X69.3334 Y-143.5713
G1 F300.0 Z10.8
G2 F800.0 X-277.3256 Y-39.01 I-71.8932 J388.5788
G0 Z3.0
G0 X88.4823 Y-88.8907
G1 F300.0 Z10.8
G2 F800.0 X-245.4083 Y-1.4185 I-88.869 J341.7618
G0 Z3.0
G0 X319.3866 Y-394.4446
G1 F300.0 Z10.4
G2 F800.0 X-101.9733 Y-188.9733 I-70.023 J391.1807
G0 Z3.0
G0 X288.9822 Y-448.3528
G1 F300.0 Z10.4
G2 F800.0 X-167.8657 Y-167.9568 I-37.0936 J451.9317
G0 Z3.0
G0 X306.9732 Y-80.5734
G1 F300.0 Z10.0
G2 F800.0 X-287.681 Y-449.9626 I-306.8788 J-169.3179
G0 Z3.0
G0 X198.3875 Y38.3791
G1 F300.0 Z11.2
G2 F800.0 X78.9846 Y-306.4058 I-444.2372 J-39.2233
G0 Z3.0
G0 X337.6138 Y-338.323
G1 F300.0 Z10.8
G2 F800.0 X-37.4589 Y-199.5001 I-89.8477 J333.3473
G0 Z3.0
G0 X394.3556 Y319.882
G1 F300.0 Z10.8
G2 F800.0 X188.3424 Y-102.6403 I-393.3628 J-69.6894
G0 Z3.0
G0 X342.1531 Y-43.1238
G1 F300.0 Z11.2
G2 F800.0 X-352.9341 Y-438.0468 I-341.9716 J-207.2685
G0 Z3.0
G0 X342.1531 Y-43.1238
G1 F300.0 Z10.8
G2 F800.0 X-352.9341 Y-438.0468 I-341.9716 J-207.2685
G0 Z3.0
G0 X373.9285 Y-1.1348
G1 F300.0 Z11.2
G2 F800.0 X-417.0523 Y-418.1871 I-373.354 J-250.5101
G0 Z3.0
G0 X0.7093 Y375.2052
G1 F300.0 Z11.2
G2 F800.0 X418.5829 Y-417.2274 I248.7399 J-375.2269
G0 Z3.0
G0 X447.551 Y289.3832
G1 F300.0 Z10.8
G2 F800.0 X168.0105 Y-166.9916 I-441.026 J-43.661
G0 Z3.0
G0 X342.1531 Y-43.1238
G1 F300.0 Z10.4
G2 F800.0 X-352.9341 Y-438.0468 I-341.9716 J-207.2685
G0 Z3.0
G0 X-342.3916 Y43.1686
G1 F300.0 Z10.8
G2 F800.0 X353.2178 Y437.6212 I342.6128 J206.3822
G0 Z3.0
G0 X143.4334 Y69.5061
G1 F300.0 Z11.6
G2 F800.0 X38.5844 Y-278.2618 I-390.856 J-71.8499
G0 Z3.0
G0 X-41.9889 Y-342.1531
G1 F300.0 Z11.6
G2 F800.0 X-436.3445 Y354.0689 I-206.9188 J342.5935
G0 Z3.0
G0 X-287.7945 Y448.4873
G1 F300.0 Z11.6
G2 F800.0 X166.166 Y169.708 I38.6473 J-446.0686
G0 Z3.0
G0 X143.4334 Y69.5061
G1 F300.0 Z11.2
G2 F800.0 X38.5844 Y-278.2618 I-390.856 J-71.8499
G0 Z3.0
G0 X-41.9889 Y-342.1531
G1 F300.0 Z11.2
G2 F800.0 X-436.3445 Y354.0689 I-206.9188 J342.5935
G0 Z3.0
G0 X-287.7945 Y448.4873
G1 F300.0 Z11.2
G2 F800.0 X166.166 Y169.708 I38.6473 J-446.0686
G0 Z3.0
G0 X80.0 Y305.9412
G1 F300.0 Z11.2
G2 F800.0 X448.3619 Y-288.3619 I172.0287 J-304.6837
G0 Z3.0
G0 X-88.4062 Y88.3955
G1 F300.0 Z11.2
G2 F800.0 X245.4286 Y-0.8702 I89.4474 J-334.3545
G0 Z3.0
G0 X198.3875 Y38.3791
G1 F300.0 Z10.8
G2 F800.0 X78.9846 Y-306.4058 I-444.2372 J-39.2233
G0 Z3.0
G0 X337.6138 Y-338.323
G1 F300.0 Z10.4
G2 F800.0 X-37.4589 Y-199.5001 I-89.8477 J333.3473
G0 Z3.0
G0 X394.3556 Y319.882
G1 F300.0 Z10.4
G2 F800.0 X188.3424 Y-102.6403 I-393.3628 J-69.6894
G0 Z3.0
G0 X143.4334 Y69.5061
G1 F300.0 Z10.8
G2 F800.0 X38.5844 Y-278.2618 I-390.856 J-71.8499
G0 Z3.0
G0 X89.2598 Y88.7218
G1 F300.0 Z10.8
G2 F800.0 X0.9079 Y-245.5786 I-346.3389 J-87.2918
G0 Z3.0
G0 X37.7998 Y-200.1065
G1 F300.0 Z10.4
G2 F800.0 X-304.9872 Y-81.5664 I-33.9518 J456.7155
G0 Z3.0
G0 X69.3334 Y-143.5713
G1 F300.0 Z10.4
G2 F800.0 X-277.3256 Y-39.01 I-71.8932 J388.5788
G0 Z3.0
G0 X319.3866 Y-394.4446
G1 F300.0 Z10.0
G2 F800.0 X-101.9733 Y-188.9733 I-70.023 J391.1807
G0 Z3.0
G0 X288.9822 Y-448.3528
G1 F300.0 Z10.0
G2 F800.0 X-167.8657 Y-167.9568 I-37.0936 J451.9317
G0 Z3.0
G0 X306.9732 Y-80.5734
G1 F300.0 Z9.6
G2 F800.0 X-287.681 Y-449.9626 I-306.8788 J-169.3179
G0 Z3.0
G0 X-88.4062 Y88.3955
G1 F300.0 Z10.8
G2 F800.0 X245.4286 Y-0.8702 I89.4474 J-334.3545
G0 Z3.0
G0 X198.3875 Y38.3791
G1 F300.0 Z10.4
G2 F800.0 X78.9846 Y-306.4058 I-444.2372 J-39.2233
G0 Z3.0
G0 X337.6138 Y-338.323
G1 F300.0 Z10.0
G2 F800.0 X-37.4589 Y-199.5001 I-89.8477 J333.3473
G0 Z3.0
G0 X394.3556 Y319.882
G1 F300.0 Z10.0
G2 F800.0 X188.3424 Y-102.6403 I-393.3628 J-69.6894
G0 Z3.0
G0 X143.4334 Y69.5061
G1 F300.0 Z10.4
G2 F800.0 X38.5844 Y-278.2618 I-390.856 J-71.8499
G0 Z3.0
G0 X89.2598 Y88.7218
G1 F300.0 Z10.4
G2 F800.0 X0.9079 Y-245.5786 I-346.3389 J-87.2918
G0 Z3.0
G0 X37.7998 Y-200.1065
G1 F300.0 Z10.0
G2 F800.0 X-304.9872 Y-81.5664 I-33.9518 J456.7155
G0 Z3.0
G0 X69.3334 Y-143.5713
G1 F300.0 Z10.0
G2 F800.0 X-277.3256 Y-39.01 I-71.8932 J388.5788
G0 Z3.0
G0 X319.3866 Y-394.4446
G1 F300.0 Z9.6
G2 F800.0 X-101.9733 Y-188.9733 I-70.023 J391.1807
G0 Z3.0
G0 X288.9822 Y-448.3528
G1 F300.0 Z9.6
G2 F800.0 X-167.8657 Y-167.9568 I-37.0936 J451.9317
G0 Z3.0
G0 X306.9732 Y-80.5734
G1 F300.0 Z9.2
G2 F800.0 X-287.681 Y-449.9626 I-306.8788 J-169.3179
G0 Z3.0
G0 X80.0 Y305.9412
G1 F300.0 Z10.8
G2 F800.0 X448.3619 Y-288.3619 I172.0287 J-304.6837
G0 Z3.0
G0 X-37.8427 Y198.164
G1 F300.0 Z11.2
G2 F800.0 X306.5888 Y79.2227 I43.8402 J-431.2217
G0 Z3.0
G0 X339.0323 Y337.6138
G1 F300.0 Z10.8
G2 F800.0 X200.0149 Y-38.3007 I-337.4801 J-88.8584
G0 Z3.0
G0 X-88.6772 Y-89.0406
G1 F300.0 Z10.8
G2 F800.0 X0.453 Y244.4409 I338.4211 J88.2014
G0 Z3.0
G0 X-37.8427 Y198.164
G1 F300.0 Z10.8
G2 F800.0 X306.5888 Y79.2227 I43.8402 J-431.2217
G0 Z3.0
G0 X339.0323 Y337.6138
G1 F300.0 Z10.4
G2 F800.0 X200.0149 Y-38.3007 I-337.4801 J-88.8584
G0 Z3.0
G0 X88.4823 Y-88.8907
G1 F300.0 Z10.4
G2 F800.0 X-245.4083 Y-1.4185 I-88.869 J341.7618
G0 Z3.0
G0 X-88.4062 Y88.3955
G1 F300.0 Z10.4
G2 F800.0 X245.4286 Y-0.8702 I89.4474 J-334.3545
G0 Z3.0
G0 X143.4334 Y69.5061
G1 F300.0 Z10.0
G2 F800.0 X38.5844 Y-278.2618 I-390.856 J-71.8499
G0 Z3.0
G0 X89.2598 Y88.7218
G1 F300.0 Z10.0
G2 F800.0 X0.9079 Y-245.5786 I-346.3389 J-87.2918
G0 Z3.0
G0 X37.7998 Y-200.1065
G1 F300.0 Z9.6
G2 F800.0 X-304.9872 Y-81.5664 I-33.9518 J456.7155
G0 Z3.0
G0 X69.3334 Y-143.5713
G1 F300.0 Z9.6
G2 F800.0 X-277.3256 Y-39.01 I-71.8932 J388.5788
G0 Z3.0
G0 X319.3866 Y-394.4446
G1 F300.0 Z9.2
G2 F800.0 X-101.9733 Y-188.9733 I-70.023 J391.1807
G0 Z3.0
G0 X288.9822 Y-448.3528
G1 F300.0 Z9.2
G2 F800.0 X-167.8657 Y-167.9568 I-37.0936 J451.9317
G0 Z3.0
G0 X306.9732 Y-80.5734
G1 F300.0 Z8.8
G2 F800.0 X-287.681 Y-449.9626 I-306.8788 J-169.3179
G0 Z3.0
G0 X-68.848 Y143.409
G1 F300.0 Z10.4
G2 F800.0 X278.9931 Y37.0594 I74.3104 J-378.973
G0 Z3.0
G0 X-317.7541 Y394.0151
G1 F300.0 Z10.8
G2 F800.0 X101.4142 Y189.7541 I69.8875 J-388.805
G0 Z3.0
G0 X-317.7541 Y394.0151
G1 F300.0 Z10.4
G2 F800.0 X101.4142 Y189.7541 I69.8875 J-388.805
G0 Z3.0
G0 X40.0 Y340.0
G1 F300.0 Z11.2
G2 F800.0 X438.6791 Y-352.7037 I209.9408 J-340.2504
G0 Z3.0
G0 X373.9285 Y-1.1348
G1 F300.0 Z10.8
G2 F800.0 X-417.0523 Y-418.1871 I-373.354 J-250.5101
G0 Z3.0
G0 X40.0 Y340.0
G1 F300.0 Z10.8
G2 F800.0 X438.6791 Y-352.7037 I209.9408 J-340.2504
G0 Z3.0
G0 X447.551 Y289.3832
G1 F300.0 Z10.4
G2 F800.0 X168.0105 Y-166.9916 I-441.026 J-43.661
G0 Z3.0
G0 X198.3875 Y38.3791
G1 F300.0 Z10.0
G2 F800.0 X78.9846 Y-306.4058 I-444.2372 J-39.2233
G0 Z3.0
G0 X337.6138 Y-338.323
G1 F300.0 Z9.6
G2 F800.0 X-37.4589 Y-199.5001 I-89.8477 J333.3473
G0 Z3.0
G0 X394.3556 Y319.882
G1 F300.0 Z9.6
G2 F800.0 X188.3424 Y-102.6403 I-393.3628 J-69.6894
G0 Z3.0
G0 X342.1531 Y-43.1238
G1 F300.0 Z10.0
G2 F800.0 X-352.9341 Y-438.0468 I-341.9716 J-207.2685
G0 Z3.0
G0 X-375.0379 Y0.1072
G1 F300.0 Z11.2
G2 F800.0 X417.0523 Y417.7616 I375.1638 J248.429
G0 Z3.0
G0 X0.7093 Y375.2052
G1 F300.0 Z10.8
G2 F800.0 X418.5829 Y-417.2274 I248.7399 J-375.2269
G0 Z3.0
G0 X373.9285 Y-1.1348
G1 F300.0 Z10.4
G2 F800.0 X-417.0523 Y-418.1871 I-373.354 J-250.5101
G0 Z3.0
G0 X447.551 Y289.3832
G1 F300.0 Z10.0
G2 F800.0 X168.0105 Y-166.9916 I-441.026 J-43.661
G0 Z3.0
G0 X342.1531 Y-43.1238
G1 F300.0 Z9.6
G2 F800.0 X-352.9341 Y-438.0468 I-341.9716 J-207.2685
G0 Z3.0
G0 X-41.9889 Y-342.1531
G1 F300.0 Z10.8
G2 F800.0 X-436.3445 Y354.0689 I-206.9188 J342.5935
G0 Z3.0
G0 X-375.0379 Y0.1072
G1 F300.0 Z10.8
G2 F800.0 X417.0523 Y417.7616 I375.1638 J248.429
G0 Z3.0
G0 X0.7093 Y375.2052
G1 F300.0 Z10.4
G2 F800.0 X418.5829 Y-417.2274 I248.7399 J-375.2269
G0 Z3.0
G0 X-41.9889 Y-342.1531
G1 F300.0 Z10.4
G2 F800.0 X-436.3445 Y354.0689 I-206.9188 J342.5935
G0 Z3.0
G0 X-306.0312 Y80.7547
G1 F300.0 Z11.2
G2 F800.0 X285.8369 Y450.3881 I306.1607 J168.4414
G0 Z3.0
G0 X-287.7945 Y448.4873
G1 F300.0 Z10.8
G2 F800.0 X166.166 Y169.708 I38.6473 J-446.0686
G0 Z3.0
G0 X80.0 Y305.9412
G1 F300.0 Z10.4
G2 F800.0 X448.3619 Y-288.3619 I172.0287 J-304.6837
G0 Z3.0
G0 X40.0 Y340.0
G1 F300.0 Z10.4
G2 F800.0 X438.6791 Y-352.7037 I209.9408 J-340.2504
G0 Z3.0
G0 X373.9285 Y-1.1348
G1 F300.0 Z10.0
G2 F800.0 X-417.0523 Y-418.1871 I-373.354 J-250.5101
G0 Z3.0
G0 X447.551 Y289.3832
G1 F300.0 Z9.6
G2 F800.0 X168.0105 Y-166.9916 I-441.026 J-43.661
G0 Z3.0
G0 X342.1531 Y-43.1238
G1 F300.0 Z9.2
G2 F800.0 X-352.9341 Y-438.0468 I-341.9716 J-207.2685
G0 Z3.0
G0 X-447.1255 Y-289.3832
G1 F300.0 Z10.8
G2 F800.0 X-167.2071 Y167.2381 I440.6195 J43.9997
G0 Z3.0
G0 X-306.0312 Y80.7547
G1 F300.0 Z10.8
G2 F800.0 X285.8369 Y450.3881 I306.1607 J168.4414
G0 Z3.0
G0 X-287.7945 Y448.4873
G1 F300.0 Z10.4
G2 F800.0 X166.166 Y169.708 I38.6473 J-446.0686
G0 Z3.0
G0 X80.0 Y305.9412
G1 F300.0 Z10.0
G2 F800.0 X448.3619 Y-288.3619 I172.0287 J-304.6837
G0 Z3.0
G0 X40.0 Y340.0
G1 F300.0 Z10.0
G2 F800.0 X438.6791 Y-352.7037 I209.9408 J-340.2504
G0 Z3.0
G0 X-80.5734 Y-305.2709
G1 F300.0 Z10.4
G2 F800.0 X-448.8277 Y287.1136 I-170.2189 J304.8383
G0 Z3.0
G0 X-342.3916 Y43.1686
G1 F300.0 Z10.4
G2 F800.0 X353.2178 Y437.6212 I342.6128 J206.3822
G0 Z3.0
G0 X-375.0379 Y0.1072
G1 F300.0 Z10.4
G2 F800.0 X417.0523 Y417.7616 I375.1638 J248.429
G0 Z3.0
G0 X0.7093 Y375.2052
G1 F300.0 Z10.0
G2 F800.0 X418.5829 Y-417.2274 I248.7399 J-375.2269
G0 Z3.0
G0 X373.9285 Y-1.1348
G1 F300.0 Z9.6
G2 F800.0 X-417.0523 Y-418.1871 I-373.354 J-250.5101
G0 Z3.0
G0 X-41.9889 Y-342.1531
G1 F300.0 Z10.0
G2 F800.0 X-436.3445 Y354.0689 I-206.9188 J342.5935
G0 Z3.0
G0 X-447.1255 Y-289.3832
G1 F300.0 Z10.4
G2 F800.0 X-167.2071 Y167.2381 I440.6195 J43.9997
G0 Z3.0
G0 X-342.3916 Y43.1686
G1 F300.0 Z10.0
G2 F800.0 X353.2178 Y437.6212 I342.6128 J206.3822
G0 Z3.0
G0 X-375.0379 Y0.1072
G1 F300.0 Z10.0
G2 F800.0 X417.0523 Y417.7616 I375.1638 J248.429
G0 Z3.0
G0 X0.7093 Y375.2052
G1 F300.0 Z9.6
G2 F800.0 X418.5829 Y-417.2274 I248.7399 J-375.2269
G0 Z3.0
G0 X-41.9889 Y-342.1531
G1 F300.0 Z9.6
G2 F800.0 X-436.3445 Y354.0689 I-206.9188 J342.5935
G0 Z3.0
G0 X-80.5734 Y-305.2709
G1 F300.0 Z10.0
G2 F800.0 X-448.8277 Y287.1136 I-170.2189 J304.8383
G0 Z3.0
G0 X-338.1812 Y338.1812
G1 F300.0 Z10.8
G2 F800.0 X37.6822 Y199.2272 I88.9244 J-337.2865
G0 Z3.0
G0 X-37.8427 Y198.164
G1 F300.0 Z10.4
G2 F800.0 X306.5888 Y79.2227 I43.8402 J-431.2217
G0 Z3.0
G0 X339.0323 Y337.6138
G1 F300.0 Z10.0
G2 F800.0 X200.0149 Y-38.3007 I-337.4801 J-88.8584
G0 Z3.0
G0 X-317.7541 Y394.0151
G1 F300.0 Z10.0
G2 F800.0 X101.4142 Y189.7541 I69.8875 J-388.805
G0 Z3.0
G0 X-88.6772 Y-89.0406
G1 F300.0 Z10.4
G2 F800.0 X0.453 Y244.4409 I338.4211 J88.2014
G0 Z3.0
G0 X-68.848 Y143.409
G1 F300.0 Z10.0
G2 F800.0 X278.9931 Y37.0594 I74.3104 J-378.973
G0 Z3.0
G0 X-88.4062 Y88.3955
G1 F300.0 Z10.0
G2 F800.0 X245.4286 Y-0.8702 I89.4474 J-334.3545
G0 Z3.0
G0 X198.3875 Y38.3791
G1 F300.0 Z9.6
G2 F800.0 X78.9846 Y-306.4058 I-444.2372 J-39.2233
G0 Z3.0
G0 X337.6138 Y-338.323
G1 F300.0 Z9.2
G2 F800.0 X-37.4589 Y-199.5001 I-89.8477 J333.3473
G0 Z3.0
G0 X394.3556 Y319.882
G1 F300.0 Z9.2
G2 F800.0 X188.3424 Y-102.6403 I-393.3628 J-69.6894
G0 Z3.0
G0 X447.551 Y289.3832
G1 F300.0 Z9.2
G2 F800.0 X168.0105 Y-166.9916 I-441.026 J-43.661
G0 Z3.0
G0 X342.1531 Y-43.1238
G1 F300.0 Z8.8
G2 F800.0 X-352.9341 Y-438.0468 I-341.9716 J-207.2685
G0 Z3.0
G0 X143.4334 Y69.5061
G1 F300.0 Z9.6
G2 F800.0 X38.5844 Y-278.2618 I-390.856 J-71.8499
G0 Z3.0
G0 X-143.0046 Y-70.1753
G1 F300.0 Z10.4
G2 F800.0 X-37.1274 Y277.7898 I379.1984 J74.7097
G0 Z3.0
G0 X-338.1812 Y338.1812
G1 F300.0 Z10.4
G2 F800.0 X37.6822 Y199.2272 I88.9244 J-337.2865
G0 Z3.0
G0 X-37.8427 Y198.164
G1 F300.0 Z10.0
G2 F800.0 X306.5888 Y79.2227 I43.8402 J-431.2217
G0 Z3.0
G0 X339.0323 Y337.6138
G1 F300.0 Z9.6
G2 F800.0 X200.0149 Y-38.3007 I-337.4801 J-88.8584
G0 Z3.0
G0 X-317.7541 Y394.0151
G1 F300.0 Z9.6
G2 F800.0 X101.4142 Y189.7541 I69.8875 J-388.805
G0 Z3.0
G0 X-88.6772 Y-89.0406
G1 F300.0 Z10.0
G2 F800.0 X0.453 Y244.4409 I338.4211 J88.2014
G0 Z3.0
G0 X-68.848 Y143.409
G1 F300.0 Z9.6
G2 F800.0 X278.9931 Y37.0594 I74.3104 J-378.973
G0 Z3.0
G0 X-88.4062 Y88.3955
G1 F300.0 Z9.6
G2 F800.0 X245.4286 Y-0.8702 I89.4474 J-334.3545
G0 Z3.0
G0 X198.3875 Y38.3791
G1 F300.0 Z9.2
G2 F800.0 X78.9846 Y-306.4058 I-444.2372 J-39.2233
G0 Z3.0
G0 X143.4334 Y69.5061
G1 F300.0 Z9.2
G2 F800.0 X38.5844 Y-278.2618 I-390.856 J-71.8499
G0 Z3.0
G0 X394.3556 Y319.882
G1 F300.0 Z8.8
G2 F800.0 X188.3424 Y-102.6403 I-393.3628 J-69.6894
G0 Z3.0
G0 X-143.0046 Y-70.1753
G1 F300.0 Z10.0
G2 F800.0 X-37.1274 Y277.7898 I379.1984 J74.7097
G0 Z3.0
G0 X-306.0312 Y80.7547
G1 F300.0 Z10.4
G2 F800.0 X285.8369 Y450.3881 I306.1607 J168.4414
G0 Z3.0
G0 X-287.7945 Y448.4873
G1 F300.0 Z10.0
G2 F800.0 X166.166 Y169.708 I38.6473 J-446.0686
G0 Z3.0
G0 X80.0 Y305.9412
G1 F300.0 Z9.6
G2 F800.0 X448.3619 Y-288.3619 I172.0287 J-304.6837
G0 Z3.0
G0 X40.0 Y340.0
G1 F300.0 Z9.6
G2 F800.0 X438.6791 Y-352.7037 I209.9408 J-340.2504
G0 Z3.0
G0 X373.9285 Y-1.1348
G1 F300.0 Z9.2
G2 F800.0 X-417.0523 Y-418.1871 I-373.354 J-250.5101
G0 Z3.0
G0 X447.551 Y289.3832
G1 F300.0 Z8.8
G2 F800.0 X168.0105 Y-166.9916 I-441.026 J-43.661
G0 Z3.0
G0 X342.1531 Y-43.1238
G1 F300.0 Z8.4
G2 F800.0 X-352.9341 Y-438.0468 I-341.9716 J-207.2685
G0 Z3.0
G0 X-306.0312 Y80.7547
G1 F300.0 Z10.0
G2 F800.0 X285.8369 Y450.3881 I306.1607 J168.4414
G0 Z3.0
G0 X-287.7945 Y448.4873
G1 F300.0 Z9.6
G2 F800.0 X166.166 Y169.708 I38.6473 J-446.0686
G0 Z3.0
G0 X80.0 Y305.9412
G1 F300.0 Z9.2
G2 F800.0 X448.3619 Y-288.3619 I172.0287 J-304.6837
G0 Z3.0
G0 X40.0 Y340.0
G1 F300.0 Z9.2
G2 F800.0 X438.6791 Y-352.7037 I209.9408 J-340.2504
G0 Z3.0
G0 X-198.501 Y-39.4465
G1 F300.0 Z10.4
G2 F800.0 X-79.0457 Y305.3581 I448.039 J37.8744
G0 Z3.0
G0 X-338.1812 Y338.1812
G1 F300.0 Z10.0
G2 F800.0 X37.6822 Y199.2272 I88.9244 J-337.2865
G0 Z3.0
G0 X-37.8427 Y198.164
G1 F300.0 Z9.6
G2 F800.0 X306.5888 Y79.2227 I43.8402 J-431.2217
G0 Z3.0
G0 X339.0323 Y337.6138
G1 F300.0 Z9.2
G2 F800.0 X200.0149 Y-38.3007 I-337.4801 J-88.8584
G0 Z3.0
G0 X-317.7541 Y394.0151
G1 F300.0 Z9.2
G2 F800.0 X101.4142 Y189.7541 I69.8875 J-388.805
G0 Z3.0
G0 X88.4823 Y-88.8907
G1 F300.0 Z10.0
G2 F800.0 X-245.4083 Y-1.4185 I-88.869 J341.7618
G0 Z3.0
G0 X-198.501 Y-39.4465
G1 F300.0 Z10.0
G2 F800.0 X-79.0457 Y305.3581 I448.039 J37.8744
G0 Z3.0
G0 X-338.1812 Y338.1812
G1 F300.0 Z9.6
G2 F800.0 X37.6822 Y199.2272 I88.9244 J-337.2865
G0 Z3.0
G0 X89.2598 Y88.7218
G1 F300.0 Z9.6
G2 F800.0 X0.9079 Y-245.5786 I-346.3389 J-87.2918
G0 Z3.0
G0 X37.7998 Y-200.1065
G1 F300.0 Z9.2
G2 F800.0 X-304.9872 Y-81.5664 I-33.9518 J456.7155
G0 Z3.0
G0 X69.3334 Y-143.5713
G1 F300.0 Z9.2
G2 F800.0 X-277.3256 Y-39.01 I-71.8932 J388.5788
G0 Z3.0
G0 X337.6138 Y-338.323
G1 F300.0 Z8.8
G2 F800.0 X-37.4589 Y-199.5001 I-89.8477 J333.3473
G0 Z3.0
G0 X319.3866 Y-394.4446
G1 F300.0 Z8.8
G2 F800.0 X-101.9733 Y-188.9733 I-70.023 J391.1807
G0 Z3.0
G0 X288.9822 Y-448.3528
G1 F300.0 Z8.8
G2 F800.0 X-167.8657 Y-167.9568 I-37.0936 J451.9317
G0 Z3.0
G0 X306.9732 Y-80.5734
G1 F300.0 Z8.4
G2 F800.0 X-287.681 Y-449.9626 I-306.8788 J-169.3179
G0 Z3.0
G0 X-143.0046 Y-70.1753
G1 F300.0 Z9.6
G2 F800.0 X-37.1274 Y277.7898 I379.1984 J74.7097
G0 Z3.0
G0 X-88.6772 Y-89.0406
G1 F300.0 Z9.6
G2 F800.0 X0.453 Y244.4409 I338.4211 J88.2014
G0 Z3.0
G0 X-37.8427 Y198.164
G1 F300.0 Z9.2
G2 F800.0 X306.5888 Y79.2227 I43.8402 J-431.2217
G0 Z3.0
G0 X-68.848 Y143.409
G1 F300.0 Z9.2
G2 F800.0 X278.9931 Y37.0594 I74.3104 J-378.973
G0 Z3.0
G0 X-88.4062 Y88.3955
G1 F300.0 Z9.2
G2 F800.0 X245.4286 Y-0.8702 I89.4474 J-334.3545
G0 Z3.0
G0 X198.3875 Y38.3791
G1 F300.0 Z8.8
G2 F800.0 X78.9846 Y-306.4058 I-444.2372 J-39.2233
G0 Z3.0
G0 X143.4334 Y69.5061
G1 F300.0 Z8.8
G2 F800.0 X38.5844 Y-278.2618 I-390.856 J-71.8499
G0 Z3.0
G0 X339.0323 Y337.6138
G1 F300.0 Z8.8
G2 F800.0 X200.0149 Y-38.3007 I-337.4801 J-88.8584
G0 Z3.0
G0 X394.3556 Y319.882
G1 F300.0 Z8.4
G2 F800.0 X188.3424 Y-102.6403 I-393.3628 J-69.6894
G0 Z3.0
G0 X-317.7541 Y394.0151
G1 F300.0 Z8.8
G2 F800.0 X101.4142 Y189.7541 I69.8875 J-388.805
G0 Z3.0
G0 X88.4823 Y-88.8907
G1 F300.0 Z9.6
G2 F800.0 X-245.4083 Y-1.4185 I-88.869 J341.7618
G0 Z3.0
G0 X-143.0046 Y-70.1753
G1 F300.0 Z9.2
G2 F800.0 X-37.1274 Y277.7898 I379.1984 J74.7097
G0 Z3.0
G0 X89.2598 Y88.7218
G1 F300.0 Z9.2
G2 F800.0 X0.9079 Y-245.5786 I-346.3389 J-87.2918
G0 Z3.0
G0 X37.7998 Y-200.1065
G1 F300.0 Z8.8
G2 F800.0 X-304.9872 Y-81.5664 I-33.9518 J456.7155
G0 Z3.0
G0 X69.3334 Y-143.5713
G1 F300.0 Z8.8
G2 F800.0 X-277.3256 Y-39.01 I-71.8932 J388.5788
G0 Z3.0
G0 X337.6138 Y-338.323
G1 F300.0 Z8.4
G2 F800.0 X-37.4589 Y-199.5001 I-89.8477 J333.3473
G0 Z3.0
G0 X319.3866 Y-394.4446
G1 F300.0 Z8.4
G2 F800.0 X-101.9733 Y-188.9733 I-70.023 J391.1807
G0 Z3.0
G0 X288.9822 Y-448.3528
G1 F300.0 Z8.4
G2 F800.0 X-167.8657 Y-167.9568 I-37.0936 J451.9317
G0 Z3.0
G0 X306.9732 Y-80.5734
G1 F300.0 Z8.0
G2 F800.0 X-287.681 Y-449.9626 I-306.8788 J-169.3179
G0 Z3.0
G0 X-88.6772 Y-89.0406
G1 F300.0 Z9.2
G2 F800.0 X0.453 Y244.4409 I338.4211 J88.2014
G0 Z3.0
G0 X-68.848 Y143.409
G1 F300.0 Z8.8
G2 F800.0 X278.9931 Y37.0594 I74.3104 J-378.973
G0 Z3.0
G0 X-88.4062 Y88.3955
G1 F300.0 Z8.8
G2 F800.0 X245.4286 Y-0.8702 I89.4474 J-334.3545
G0 Z3.0
G0 X198.3875 Y38.3791
G1 F300.0 Z8.4
G2 F800.0 X78.9846 Y-306.4058 I-444.2372 J-39.2233
G0 Z3.0
G0 X143.4334 Y69.5061
G1 F300.0 Z8.4
G2 F800.0 X38.5844 Y-278.2618 I-390.856 J-71.8499
G0 Z3.0
G0 X394.3556 Y319.882
G1 F300.0 Z8.0
G2 F800.0 X188.3424 Y-102.6403 I-393.3628 J-69.6894
G0 Z3.0
G0 X-339.1863 Y-338.2009
G1 F300.0 Z10.0
G2 F800.0 X-198.4095 Y37.3686 I338.7067 J87.2095
G0 Z3.0
G0 X-339.1863 Y-338.2009
G1 F300.0 Z9.6
G2 F800.0 X-198.4095 Y37.3686 I338.7067 J87.2095
G0 Z3.0
G0 X-393.5004 Y-319.0787
G1 F300.0 Z10.0
G2 F800.0 X-187.851 Y102.6594 I389.2802 J71.1867
G0 Z3.0
G0 X-393.5004 Y-319.0787
G1 F300.0 Z9.6
G2 F800.0 X-187.851 Y102.6594 I389.2802 J71.1867
G0 Z3.0
G0 X-447.1255 Y-289.3832
G1 F300.0 Z10.0
G2 F800.0 X-167.2071 Y167.2381 I440.6195 J43.9997
G0 Z3.0
G0 X-306.0312 Y80.7547
G1 F300.0 Z9.6
G2 F800.0 X285.8369 Y450.3881 I306.1607 J168.4414
G0 Z3.0
G0 X-287.7945 Y448.4873
G1 F300.0 Z9.2
G2 F800.0 X166.166 Y169.708 I38.6473 J-446.0686
G0 Z3.0
G0 X80.0 Y305.9412
G1 F300.0 Z8.8
G2 F800.0 X448.3619 Y-288.3619 I172.0287 J-304.6837
G0 Z3.0
G0 X40.0 Y340.0
G1 F300.0 Z8.8
G2 F800.0 X438.6791 Y-352.7037 I209.9408 J-340.2504
G0 Z3.0
G0 X-80.5734 Y-305.2709
G1 F300.0 Z9.6
G2 F800.0 X-448.8277 Y287.1136 I-170.2189 J304.8383
G0 Z3.0
G0 X-342.3916 Y43.1686
G1 F300.0 Z9.6
G2 F800.0 X353.2178 Y437.6212 I342.6128 J206.3822
G0 Z3.0
G0 X-198.501 Y-39.4465
G1 F300.0 Z9.6
G2 F800.0 X-79.0457 Y305.3581 I448.039 J37.8744
G0 Z3.0
G0 X-338.1812 Y338.1812
G1 F300.0 Z9.2
G2 F800.0 X37.6822 Y199.2272 I88.9244 J-337.2865
G0 Z3.0
G0 X-37.8427 Y198.164
G1 F300.0 Z8.8
G2 F800.0 X306.5888 Y79.2227 I43.8402 J-431.2217
G0 Z3.0
G0 X339.0323 Y337.6138
G1 F300.0 Z8.4
G2 F800.0 X200.0149 Y-38.3007 I-337.4801 J-88.8584
G0 Z3.0
G0 X-317.7541 Y394.0151
G1 F300.0 Z8.4
G2 F800.0 X101.4142 Y189.7541 I69.8875 J-388.805
G0 Z3.0
G0 X88.4823 Y-88.8907
G1 F300.0 Z9.2
G2 F800.0 X-245.4083 Y-1.4185 I-88.869 J341.7618
G0 Z3.0
G0 X-143.0046 Y-70.1753
G1 F300.0 Z8.8
G2 F800.0 X-37.1274 Y277.7898 I379.1984 J74.7097
G0 Z3.0
G0 X89.2598 Y88.7218
G1 F300.0 Z8.8
G2 F800.0 X0.9079 Y-245.5786 I-346.3389 J-87.2918
G0 Z3.0
G0 X37.7998 Y-200.1065
G1 F300.0 Z8.4
G2 F800.0 X-304.9872 Y-81.5664 I-33.9518 J456.7155
G0 Z3.0
G0 X69.3334 Y-143.5713
G1 F300.0 Z8.4
G2 F800.0 X-277.3256 Y-39.01 I-71.8932 J388.5788
G0 Z3.0
G0 X337.6138 Y-338.323
G1 F300.0 Z8.0
G2 F800.0 X-37.4589 Y-199.5001 I-89.8477 J333.3473
G0 Z3.0
G0 X319.3866 Y-394.4446
G1 F300.0 Z8.0
G2 F800.0 X-101.9733 Y-188.9733 I-70.023 J391.1807
G0 Z3.0
G0 X288.9822 Y-448.3528
G1 F300.0 Z8.0
G2 F800.0 X-167.8657 Y-167.9568 I-37.0936 J451.9317
G0 Z3.0
G0 X306.9732 Y-80.5734
G1 F300.0 Z7.6
G2 F800.0 X-287.681 Y-449.9626 I-306.8788 J-169.3179
G0 Z3.0
G0 X-88.6772 Y-89.0406
G1 F300.0 Z8.8
G2 F800.0 X0.453 Y244.4409 I338.4211 J88.2014
G0 Z3.0
G0 X-68.848 Y143.409
G1 F300.0 Z8.4
G2 F800.0 X278.9931 Y37.0594 I74.3104 J-378.973
G0 Z3.0
G0 X-88.4062 Y88.3955
G1 F300.0 Z8.4
G2 F800.0 X245.4286 Y-0.8702 I89.4474 J-334.3545
G0 Z3.0
G0 X143.4334 Y69.5061
G1 F300.0 Z8.0
G2 F800.0 X38.5844 Y-278.2618 I-390.856 J-71.8499
G0 Z3.0
G0 X-339.1863 Y-338.2009
G1 F300.0 Z9.2
G2 F800.0 X-198.4095 Y37.3686 I338.7067 J87.2095
G0 Z3.0
G0 X-393.5004 Y-319.0787
G1 F300.0 Z9.2
G2 F800.0 X-187.851 Y102.6594 I389.2802 J71.1867
G0 Z3.0
G0 X-375.0379 Y0.1072
G1 F300.0 Z9.6
G2 F800.0 X417.0523 Y417.7616 I375.1638 J248.429
G0 Z3.0
G0 X0.7093 Y375.2052
G1 F300.0 Z9.2
G2 F800.0 X418.5829 Y-417.2274 I248.7399 J-375.2269
G0 Z3.0
G0 X373.9285 Y-1.1348
G1 F300.0 Z8.8
G2 F800.0 X-417.0523 Y-418.1871 I-373.354 J-250.5101
G0 Z3.0
G0 X447.551 Y289.3832
G1 F300.0 Z8.4
G2 F800.0 X168.0105 Y-166.9916 I-441.026 J-43.661
G0 Z3.0
G0 X198.3875 Y38.3791
G1 F300.0 Z8.0
G2 F800.0 X78.9846 Y-306.4058 I-444.2372 J-39.2233
G0 Z3.0
G0 X342.1531 Y-43.1238
G1 F300.0 Z8.0
G2 F800.0 X-352.9341 Y-438.0468 I-341.9716 J-207.2685
G0 Z3.0
G0 X394.3556 Y319.882
G1 F300.0 Z7.6
G2 F800.0 X188.3424 Y-102.6403 I-393.3628 J-69.6894
G0 Z3.0
G0 X-41.9889 Y-342.1531
G1 F300.0 Z9.2
G2 F800.0 X-436.3445 Y354.0689 I-206.9188 J342.5935
G0 Z3.0
G0 X-447.1255 Y-289.3832
G1 F300.0 Z9.6
G2 F800.0 X-167.2071 Y167.2381 I440.6195 J43.9997
G0 Z3.0
G0 X-306.0312 Y80.7547
G1 F300.0 Z9.2
G2 F800.0 X285.8369 Y450.3881 I306.1607 J168.4414
G0 Z3.0
G0 X-287.7945 Y448.4873
G1 F300.0 Z8.8
G2 F800.0 X166.166 Y169.708 I38.6473 J-446.0686
G0 Z3.0
G0 X80.0 Y305.9412
G1 F300.0 Z8.4
G2 F800.0 X448.3619 Y-288.3619 I172.0287 J-304.6837
G0 Z3.0
G0 X40.0 Y340.0
G1 F300.0 Z8.4
G2 F800.0 X438.6791 Y-352.7037 I209.9408 J-340.2504
G0 Z3.0
G0 X-80.5734 Y-305.2709
G1 F300.0 Z9.2
G2 F800.0 X-448.8277 Y287.1136 I-170.2189 J304.8383
G0 Z3.0
G0 X-342.3916 Y43.1686
G1 F300.0 Z9.2
G2 F800.0 X353.2178 Y437.6212 I342.6128 J206.3822
G0 Z3.0
G0 X-198.501 Y-39.4465
G1 F300.0 Z9.2
G2 F800.0 X-79.0457 Y305.3581 I448.039 J37.8744
G0 Z3.0
G0 X-338.1812 Y338.1812
G1 F300.0 Z8.8
G2 F800.0 X37.6822 Y199.2272 I88.9244 J-337.2865
G0 Z3.0
G0 X-37.8427 Y198.164
G1 F300.0 Z8.4
G2 F800.0 X306.5888 Y79.2227 I43.8402 J-431.2217
G0 Z3.0
G0 X339.0323 Y337.6138
G1 F300.0 Z8.0
G2 F800.0 X200.0149 Y-38.3007 I-337.4801 J-88.8584
G0 Z3.0
G0 X-317.7541 Y394.0151
G1 F300.0 Z8.0
G2 F800.0 X101.4142 Y189.7541 I69.8875 J-388.805
G0 Z3.0
G0 X88.4823 Y-88.8907
G1 F300.0 Z8.8
G2 F800.0 X-245.4083 Y-1.4185 I-88.869 J341.7618
G0 Z3.0
G0 X-143.0046 Y-70.1753
G1 F300.0 Z8.4
G2 F800.0 X-37.1274 Y277.7898 I379.1984 J74.7097
G0 Z3.0
G0 X89.2598 Y88.7218
G1 F300.0 Z8.4
G2 F800.0 X0.9079 Y-245.5786 I-346.3389 J-87.2918
G0 Z3.0
G0 X37.7998 Y-200.1065
G1 F300.0 Z8.0
G2 F800.0 X-304.9872 Y-81.5664 I-33.9518 J456.7155
G0 Z3.0
G0 X69.3334 Y-143.5713
G1 F300.0 Z8.0
G2 F800.0 X-277.3256 Y-39.01 I-71.8932 J388.5788
G0 Z3.0
G0 X337.6138 Y-338.323
G1 F300.0 Z7.6
G2 F800.0 X-37.4589 Y-199.5001 I-89.8477 J333.3473
G0 Z3.0
G0 X319.3866 Y-394.4446
G1 F300.0 Z7.6
G2 F800.0 X-101.9733 Y-188.9733 I-70.023 J391.1807
G0 Z3.0
G0 X288.9822 Y-448.3528
G1 F300.0 Z7.6
G2 F800.0 X-167.8657 Y-167.9568 I-37.0936 J451.9317
G0 Z3.0
G0 X306.9732 Y-80.5734
G1 F300.0 Z7.2
G2 F800.0 X-287.681 Y-449.9626 I-306.8788 J-169.3179
G0 Z3.0
G0 X-88.6772 Y-89.0406
G1 F300.0 Z8.4
G2 F800.0 X0.453 Y244.4409 I338.4211 J88.2014
G0 Z3.0
G0 X-68.848 Y143.409
G1 F300.0 Z8.0
G2 F800.0 X278.9931 Y37.0594 I74.3104 J-378.973
G0 Z3.0
G0 X-88.4062 Y88.3955
G1 F300.0 Z8.0
G2 F800.0 X245.4286 Y-0.8702 I89.4474 J-334.3545
G0 Z3.0
G0 X143.4334 Y69.5061
G1 F300.0 Z7.6
G2 F800.0 X38.5844 Y-278.2618 I-390.856 J-71.8499
G0 Z3.0
G0 X-339.1863 Y-338.2009
G1 F300.0 Z8.8
G2 F800.0 X-198.4095 Y37.3686 I338.7067 J87.2095
G0 Z3.0
G0 X-393.5004 Y-319.0787
G1 F300.0 Z8.8
G2 F800.0 X-187.851 Y102.6594 I389.2802 J71.1867
G0 Z3.0
G0 X-375.0379 Y0.1072
G1 F300.0 Z9.2
G2 F800.0 X417.0523 Y417.7616 I375.1638 J248.429
G0 Z3.0
G0 X0.7093 Y375.2052
G1 F300.0 Z8.8
G2 F800.0 X418.5829 Y-417.2274 I248.7399 J-375.2269
G0 Z3.0
G0 X373.9285 Y-1.1348
G1 F300.0 Z8.4
G2 F800.0 X-417.0523 Y-418.1871 I-373.354 J-250.5101
G0 Z3.0
G0 X447.551 Y289.3832
G1 F300.0 Z8.0
G2 F800.0 X168.0105 Y-166.9916 I-441.026 J-43.661
G0 Z3.0
G0 X198.3875 Y38.3791
G1 F300.0 Z7.6
G2 F800.0 X78.9846 Y-306.4058 I-444.2372 J-39.2233
G0 Z3.0
G0 X342.1531 Y-43.1238
G1 F300.0 Z7.6
G2 F800.0 X-352.9341 Y-438.0468 I-341.9716 J-207.2685
G0 Z3.0
G0 X394.3556 Y319.882
G1 F300.0 Z7.2
G2 F800.0 X188.3424 Y-102.6403 I-393.3628 J-69.6894
G0 Z3.0
G0 X-41.9889 Y-342.1531
G1 F300.0 Z8.8
G2 F800.0 X-436.3445 Y354.0689 I-206.9188 J342.5935
G0 Z3.0
G0 X-447.1255 Y-289.3832
G1 F300.0 Z9.2
G2 F800.0 X-167.2071 Y167.2381 I440.6195 J43.9997
G0 Z3.0
G0 X-306.0312 Y80.7547
G1 F300.0 Z8.8
G2 F800.0 X285.8369 Y450.3881 I306.1607 J168.4414
G0 Z3.0
G0 X-287.7945 Y448.4873
G1 F300.0 Z8.4
G2 F800.0 X166.166 Y169.708 I38.6473 J-446.0686
G0 Z3.0
G0 X80.0 Y305.9412
G1 F300.0 Z8.0
G2 F800.0 X448.3619 Y-288.3619 I172.0287 J-304.6837
G0 Z3.0
G0 X40.0 Y340.0
G1 F300.0 Z8.0
G2 F800.0 X438.6791 Y-352.7037 I209.9408 J-340.2504
G0 Z3.0
G0 X-80.5734 Y-305.2709
G1 F300.0 Z8.8
G2 F800.0 X-448.8277 Y287.1136 I-170.2189 J304.8383
G0 Z3.0
G0 X-342.3916 Y43.1686
G1 F300.0 Z8.8
G2 F800.0 X353.2178 Y437.6212 I342.6128 J206.3822
G0 Z3.0
G0 X-198.501 Y-39.4465
G1 F300.0 Z8.8
G2 F800.0 X-79.0457 Y305.3581 I448.039 J37.8744
G0 Z3.0
G0 X-338.1812 Y338.1812
G1 F300.0 Z8.4
G2 F800.0 X37.6822 Y199.2272 I88.9244 J-337.2865
G0 Z3.0
G0 X-37.8427 Y198.164
G1 F300.0 Z8.0
G2 F800.0 X306.5888 Y79.2227 I43.8402 J-431.2217
G0 Z3.0
G0 X339.0323 Y337.6138
G1 F300.0 Z7.6
G2 F800.0 X200.0149 Y-38.3007 I-337.4801 J-88.8584
G0 Z3.0
G0 X-317.7541 Y394.0151
G1 F300.0 Z7.6
G2 F800.0 X101.4142 Y189.7541 I69.8875 J-388.805
G0 Z3.0
G0 X88.4823 Y-88.8907
G1 F300.0 Z8.4
G2 F800.0 X-245.4083 Y-1.4185 I-88.869 J341.7618
G0 Z3.0
G0 X-143.0046 Y-70.1753
G1 F300.0 Z8.0
G2 F800.0 X-37.1274 Y277.7898 I379.1984 J74.7097
G0 Z3.0
G0 X89.2598 Y88.7218
G1 F300.0 Z8.0
G2 F800.0 X0.9079 Y-245.5786 I-346.3389 J-87.2918
G0 Z3.0
G0 X37.7998 Y-200.1065
G1 F300.0 Z7.6
G2 F800.0 X-304.9872 Y-81.5664 I-33.9518 J456.7155
G0 Z3.0
G0 X69.3334 Y-143.5713
G1 F300.0 Z7.6
G2 F800.0 X-277.3256 Y-39.01 I-71.8932 J388.5788
G0 Z3.0
G0 X337.6138 Y-338.323
G1 F300.0 Z7.2
G2 F800.0 X-37.4589 Y-199.5001 I-89.8477 J333.3473
G0 Z3.0
G0 X319.3866 Y-394.4446
G1 F300.0 Z7.2
G2 F800.0 X-101.9733 Y-188.9733 I-70.023 J391.1807
G0 Z3.0
G0 X288.9822 Y-448.3528
G1 F300.0 Z7.2
G2 F800.0 X-167.8657 Y-167.9568 I-37.0936 J451.9317
G0 Z3.0
G0 X306.9732 Y-80.5734
G1 F300.0 Z6.8
G2 F800.0 X-287.681 Y-449.9626 I-306.8788 J-169.3179
G0 Z3.0
G0 X-88.6772 Y-89.0406
G1 F300.0 Z8.0
G2 F800.0 X0.453 Y244.4409 I338.4211 J88.2014
G0 Z3.0
G0 X-68.848 Y143.409
G1 F300.0 Z7.6
G2 F800.0 X278.9931 Y37.0594 I74.3104 J-378.973
G0 Z3.0
G0 X-88.4062 Y88.3955
G1 F300.0 Z7.6
G2 F800.0 X245.4286 Y-0.8702 I89.4474 J-334.3545
G0 Z3.0
G0 X143.4334 Y69.5061
G1 F300.0 Z7.2
G2 F800.0 X38.5844 Y-278.2618 I-390.856 J-71.8499
G0 Z3.0
G0 X-339.1863 Y-338.2009
G1 F300.0 Z8.4
G2 F800.0 X-198.4095 Y37.3686 I338.7067 J87.2095
G0 Z3.0
G0 X-393.5004 Y-319.0787
G1 F300.0 Z8.4
G2 F800.0 X-187.851 Y102.6594 I389.2802 J71.1867
G0 Z3.0
G0 X-375.0379 Y0.1072
G1 F300.0 Z8.8
G2 F800.0 X417.0523 Y417.7616 I375.1638 J248.429
G0 Z3.0
G0 X0.7093 Y375.2052
G1 F300.0 Z8.4
G2 F800.0 X418.5829 Y-417.2274 I248.7399 J-375.2269
G0 Z3.0
G0 X373.9285 Y-1.1348
G1 F300.0 Z8.0
G2 F800.0 X-417.0523 Y-418.1871 I-373.354 J-250.5101
G0 Z3.0
G0 X447.551 Y289.3832
G1 F300.0 Z7.6
G2 F800.0 X168.0105 Y-166.9916 I-441.026 J-43.661
G0 Z3.0
G0 X198.3875 Y38.3791
G1 F300.0 Z7.2
G2 F800.0 X78.9846 Y-306.4058 I-444.2372 J-39.2233
G0 Z3.0
G0 X342.1531 Y-43.1238
G1 F300.0 Z7.2
G2 F800.0 X-352.9341 Y-438.0468 I-341.9716 J-207.2685
G0 Z3.0
G0 X394.3556 Y319.882
G1 F300.0 Z6.8
G2 F800.0 X188.3424 Y-102.6403 I-393.3628 J-69.6894
G0 Z3.0
G0 X-41.9889 Y-342.1531
G1 F300.0 Z8.4
G2 F800.0 X-436.3445 Y354.0689 I-206.9188 J342.5935
G0 Z3.0
G0 X-447.1255 Y-289.3832
G1 F300.0 Z8.8
G2 F800.0 X-167.2071 Y167.2381 I440.6195 J43.9997
G0 Z3.0
G0 X-306.0312 Y80.7547
G1 F300.0 Z8.4
G2 F800.0 X285.8369 Y450.3881 I306.1607 J168.4414
G0 Z3.0
G0 X-287.7945 Y448.4873
G1 F300.0 Z8.0
G2 F800.0 X166.166 Y169.708 I38.6473 J-446.0686
G0 Z3.0
G0 X80.0 Y305.9412
G1 F300.0 Z7.6
G2 F800.0 X448.3619 Y-288.3619 I172.0287 J-304.6837
G0 Z3.0
G0 X40.0 Y340.0
G1 F300.0 Z7.6
G2 F800.0 X438.6791 Y-352.7037 I209.9408 J-340.2504
G0 Z3.0
G0 X-80.5734 Y-305.2709
G1 F300.0 Z8.4
G2 F800.0 X-448.8277 Y287.1136 I-170.2189 J304.8383
G0 Z3.0
G0 X-342.3916 Y43.1686
G1 F300.0 Z8.4
G2 F800.0 X353.2178 Y437.6212 I342.6128 J206.3822
G0 Z3.0
G0 X-198.501 Y-39.4465
G1 F300.0 Z8.4
G2 F800.0 X-79.0457 Y305.3581 I448.039 J37.8744
G0 Z3.0
G0 X-338.1812 Y338.1812
G1 F300.0 Z8.0
G2 F800.0 X37.6822 Y199.2272 I88.9244 J-337.2865
G0 Z3.0
G0 X-37.8427 Y198.164
G1 F300.0 Z7.6
G2 F800.0 X306.5888 Y79.2227 I43.8402 J-431.2217
G0 Z3.0
G0 X339.0323 Y337.6138
G1 F300.0 Z7.2
G2 F800.0 X200.0149 Y-38.3007 I-337.4801 J-88.8584
G0 Z3.0
G0 X-317.7541 Y394.0151
G1 F300.0 Z7.2
G2 F800.0 X101.4142 Y189.7541 I69.8875 J-388.805
G0 Z3.0
G0 X88.4823 Y-88.8907
G1 F300.0 Z8.0
G2 F800.0 X-245.4083 Y-1.4185 I-88.869 J341.7618
G0 Z3.0
G0 X-143.0046 Y-70.1753
G1 F300.0 Z7.6
G2 F800.0 X-37.1274 Y277.7898 I379.1984 J74.7097
G0 Z3.0
G0 X89.2598 Y88.7218
G1 F300.0 Z7.6
G2 F800.0 X0.9079 Y-245.5786 I-346.3389 J-87.2918
G0 Z3.0
G0 X37.7998 Y-200.1065
G1 F300.0 Z7.2
G2 F800.0 X-304.9872 Y-81.5664 I-33.9518 J456.7155
G0 Z3.0
G0 X69.3334 Y-143.5713
G1 F300.0 Z7.2
G2 F800.0 X-277.3256 Y-39.01 I-71.8932 J388.5788
G0 Z3.0
G0 X337.6138 Y-338.323
G1 F300.0 Z6.8
G2 F800.0 X-37.4589 Y-199.5001 I-89.8477 J333.3473
G0 Z3.0
G0 X319.3866 Y-394.4446
G1 F300.0 Z6.8
G2 F800.0 X-101.9733 Y-188.9733 I-70.023 J391.1807
G0 Z3.0
G0 X288.9822 Y-448.3528
G1 F300.0 Z6.8
G2 F800.0 X-167.8657 Y-167.9568 I-37.0936 J451.9317
G0 Z3.0
G0 X306.9732 Y-80.5734
G1 F300.0 Z6.4
G2 F800.0 X-287.681 Y-449.9626 I-306.8788 J-169.3179
G0 Z3.0
G0 X-88.6772 Y-89.0406
G1 F300.0 Z7.6
G2 F800.0 X0.453 Y244.4409 I338.4211 J88.2014
G0 Z3.0
G0 X-68.848 Y143.409
G1 F300.0 Z7.2
G2 F800.0 X278.9931 Y37.0594 I74.3104 J-378.973
G0 Z3.0
G0 X-88.4062 Y88.3955
G1 F300.0 Z7.2
G2 F800.0 X245.4286 Y-0.8702 I89.4474 J-334.3545
G0 Z3.0
G0 X143.4334 Y69.5061
G1 F300.0 Z6.8
G2 F800.0 X38.5844 Y-278.2618 I-390.856 J-71.8499
G0 Z3.0
G0 X-339.1863 Y-338.2009
G1 F300.0 Z8.0
G2 F800.0 X-198.4095 Y37.3686 I338.7067 J87.2095
G0 Z3.0
G0 X-393.5004 Y-319.0787
G1 F300.0 Z8.0
G2 F800.0 X-187.851 Y102.6594 I389.2802 J71.1867
G0 Z3.0
G0 X-375.0379 Y0.1072
G1 F300.0 Z8.4
G2 F800.0 X417.0523 Y417.7616 I375.1638 J248.429
G0 Z3.0
G0 X0.7093 Y375.2052
G1 F300.0 Z8.0
G2 F800.0 X418.5829 Y-417.2274 I248.7399 J-375.2269
G0 Z3.0
G0 X373.9285 Y-1.1348
G1 F300.0 Z7.6
G2 F800.0 X-417.0523 Y-418.1871 I-373.354 J-250.5101
G0 Z3.0
G0 X447.551 Y289.3832
G1 F300.0 Z7.2
G2 F800.0 X168.0105 Y-166.9916 I-441.026 J-43.661
G0 Z3.0
G0 X198.3875 Y38.3791
G1 F300.0 Z6.8
G2 F800.0 X78.9846 Y-306.4058 I-444.2372 J-39.2233
G0 Z3.0
G0 X342.1531 Y-43.1238
G1 F300.0 Z6.8
G2 F800.0 X-352.9341 Y-438.0468 I-341.9716 J-207.2685
G0 Z3.0
G0 X394.3556 Y319.882
G1 F300.0 Z6.4
G2 F800.0 X188.3424 Y-102.6403 I-393.3628 J-69.6894
G0 Z3.0
G0 X-41.9889 Y-342.1531
G1 F300.0 Z8.0
G2 F800.0 X-436.3445 Y354.0689 I-206.9188 J342.5935
G0 Z3.0
G0 X-447.1255 Y-289.3832
G1 F300.0 Z8.4
G2 F800.0 X-167.2071 Y167.2381 I440.6195 J43.9997
G0 Z3.0
G0 X-306.0312 Y80.7547
G1 F300.0 Z8.0
G2 F800.0 X285.8369 Y450.3881 I306.1607 J168.4414
G0 Z3.0
G0 X-287.7945 Y448.4873
G1 F300.0 Z7.6
G2 F800.0 X166.166 Y169.708 I38.6473 J-446.0686
G0 Z3.0
G0 X80.0 Y305.9412
G1 F300.0 Z7.2
G2 F800.0 X448.3619 Y-288.3619 I172.0287 J-304.6837
G0 Z3.0
G0 X40.0 Y340.0
G1 F300.0 Z7.2
G2 F800.0 X438.6791 Y-352.7037 I209.9408 J-340.2504
G0 Z3.0
G0 X-80.5734 Y-305.2709
G1 F300.0 Z8.0
G2 F800.0 X-448.8277 Y287.1136 I-170.2189 J304.8383
G0 Z3.0
G0 X-342.3916 Y43.1686
G1 F300.0 Z8.0
G2 F800.0 X353.2178 Y437.6212 I342.6128 J206.3822
G0 Z3.0
G0 X-198.501 Y-39.4465
G1 F300.0 Z8.0
G2 F800.0 X-79.0457 Y305.3581 I448.039 J37.8744
G0 Z3.0
G0 X-338.1812 Y338.1812
G1 F300.0 Z7.6
G2 F800.0 X37.6822 Y199.2272 I88.9244 J-337.2865
G0 Z3.0
G0 X-37.8427 Y198.164
G1 F300.0 Z7.2
G2 F800.0 X306.5888 Y79.2227 I43.8402 J-431.2217
G0 Z3.0
G0 X339.0323 Y337.6138
G1 F300.0 Z6.8
G2 F800.0 X200.0149 Y-38.3007 I-337.4801 J-88.8584
G0 Z3.0
G0 X-317.7541 Y394.0151
G1 F300.0 Z6.8
G2 F800.0 X101.4142 Y189.7541 I69.8875 J-388.805
G0 Z3.0
G0 X88.4823 Y-88.8907
G1 F300.0 Z7.6
G2 F800.0 X-245.4083 Y-1.4185 I-88.869 J341.7618
G0 Z3.0
G0 X-143.0046 Y-70.1753
G1 F300.0 Z7.2
G2 F800.0 X-37.1274 Y277.7898 I379.1984 J74.7097
G0 Z3.0
G0 X89.2598 Y88.7218
G1 F300.0 Z7.2
G2 F800.0 X0.9079 Y-245.5786 I-346.3389 J-87.2918
G0 Z3.0
G0 X37.7998 Y-200.1065
G1 F300.0 Z6.8
G2 F800.0 X-304.9872 Y-81.5664 I-33.9518 J456.7155
G0 Z3.0
G0 X69.3334 Y-143.5713
G1 F300.0 Z6.8
G2 F800.0 X-277.3256 Y-39.01 I-71.8932 J388.5788
G0 Z3.0
G0 X337.6138 Y-338.323
G1 F300.0 Z6.4
G2 F800.0 X-37.4589 Y-199.5001 I-89.8477 J333.3473
G0 Z3.0
G0 X319.3866 Y-394.4446
G1 F300.0 Z6.4
G2 F800.0 X-101.9733 Y-188.9733 I-70.023 J391.1807
G0 Z3.0
G0 X288.9822 Y-448.3528
G1 F300.0 Z6.4
G2 F800.0 X-167.8657 Y-167.9568 I-37.0936 J451.9317
G0 Z3.0
G0 X306.9732 Y-80.5734
G1 F300.0 Z6.0
G2 F800.0 X-287.681 Y-449.9626 I-306.8788 J-169.3179
G0 Z3.0
G0 X-88.6772 Y-89.0406
G1 F300.0 Z7.2
G2 F800.0 X0.453 Y244.4409 I338.4211 J88.2014
G0 Z3.0
G0 X-68.848 Y143.409
G1 F300.0 Z6.8
G2 F800.0 X278.9931 Y37.0594 I74.3104 J-378.973
G0 Z3.0
G0 X-88.4062 Y88.3955
G1 F300.0 Z6.8
G2 F800.0 X245.4286 Y-0.8702 I89.4474 J-334.3545
G0 Z3.0
G0 X143.4334 Y69.5061
G1 F300.0 Z6.4
G2 F800.0 X38.5844 Y-278.2618 I-390.856 J-71.8499
G0 Z3.0
G0 X-339.1863 Y-338.2009
G1 F300.0 Z7.6
G2 F800.0 X-198.4095 Y37.3686 I338.7067 J87.2095
G0 Z3.0
G0 X-393.5004 Y-319.0787
G1 F300.0 Z7.6
G2 F800.0 X-187.851 Y102.6594 I389.2802 J71.1867
G0 Z3.0
G0 X-375.0379 Y0.1072
G1 F300.0 Z8.0
G2 F800.0 X417.0523 Y417.7616 I375.1638 J248.429
G0 Z3.0
G0 X0.7093 Y375.2052
G1 F300.0 Z7.6
G2 F800.0 X418.5829 Y-417.2274 I248.7399 J-375.2269
G0 Z3.0
G0 X373.9285 Y-1.1348
G1 F300.0 Z7.2
G2 F800.0 X-417.0523 Y-418.1871 I-373.354 J-250.5101
G0 Z3.0
G0 X447.551 Y289.3832
G1 F300.0 Z6.8
G2 F800.0 X168.0105 Y-166.9916 I-441.026 J-43.661
G0 Z3.0
G0 X198.3875 Y38.3791
G1 F300.0 Z6.4
G2 F800.0 X78.9846 Y-306.4058 I-444.2372 J-39.2233
G0 Z3.0
G0 X342.1531 Y-43.1238
G1 F300.0 Z6.4
G2 F800.0 X-352.9341 Y-438.0468 I-341.9716 J-207.2685
G0 Z3.0
G0 X394.3556 Y319.882
G1 F300.0 Z6.0
G2 F800.0 X188.3424 Y-102.6403 I-393.3628 J-69.6894
G0 Z3.0
G0 X-41.9889 Y-342.1531
G1 F300.0 Z7.6
G2 F800.0 X-436.3445 Y354.0689 I-206.9188 J342.5935
G0 Z3.0
G0 X-447.1255 Y-289.3832
G1 F300.0 Z8.0
G2 F800.0 X-167.2071 Y167.2381 I440.6195 J43.9997
G0 Z3.0
G0 X-306.0312 Y80.7547
G1 F300.0 Z7.6
G2 F800.0 X285.8369 Y450.3881 I306.1607 J168.4414
G0 Z3.0
G0 X-287.7945 Y448.4873
G1 F300.0 Z7.2
G2 F800.0 X166.166 Y169.708 I38.6473 J-446.0686
G0 Z3.0
G0 X80.0 Y305.9412
G1 F300.0 Z6.8
G2 F800.0 X448.3619 Y-288.3619 I172.0287 J-304.6837
G0 Z3.0
G0 X40.0 Y340.0
G1 F300.0 Z6.8
G2 F800.0 X438.6791 Y-352.7037 I209.9408 J-340.2504
G0 Z3.0
G0 X-80.5734 Y-305.2709
G1 F300.0 Z7.6
G2 F800.0 X-448.8277 Y287.1136 I-170.2189 J304.8383
G0 Z3.0
G0 X-342.3916 Y43.1686
G1 F300.0 Z7.6
G2 F800.0 X353.2178 Y437.6212 I342.6128 J206.3822
G0 Z3.0
G0 X-198.501 Y-39.4465
G1 F300.0 Z7.6
G2 F800.0 X-79.0457 Y305.3581 I448.039 J37.8744
G0 Z3.0
G0 X-338.1812 Y338.1812
G1 F300.0 Z7.2
G2 F800.0 X37.6822 Y199.2272 I88.9244 J-337.2865
G0 Z3.0
G0 X-37.8427 Y198.164
G1 F300.0 Z6.8
G2 F800.0 X306.5888 Y79.2227 I43.8402 J-431.2217
G0 Z3.0
G0 X339.0323 Y337.6138
G1 F300.0 Z6.4
G2 F800.0 X200.0149 Y-38.3007 I-337.4801 J-88.8584
G0 Z3.0
G0 X-317.7541 Y394.0151
G1 F300.0 Z6.4
G2 F800.0 X101.4142 Y189.7541 I69.8875 J-388.805
G0 Z3.0
G0 X88.4823 Y-88.8907
G1 F300.0 Z7.2
G2 F800.0 X-245.4083 Y-1.4185 I-88.869 J341.7618
G0 Z3.0
G0 X-143.0046 Y-70.1753
G1 F300.0 Z6.8
G2 F800.0 X-37.1274 Y277.7898 I379.1984 J74.7097
G0 Z3.0
G0 X89.2598 Y88.7218
G1 F300.0 Z6.8
G2 F800.0 X0.9079 Y-245.5786 I-346.3389 J-87.2918
G0 Z3.0
G0 X37.7998 Y-200.1065
G1 F300.0 Z6.4
G2 F800.0 X-304.9872 Y-81.5664 I-33.9518 J456.7155
G0 Z3.0
G0 X69.3334 Y-143.5713
G1 F300.0 Z6.4
G2 F800.0 X-277.3256 Y-39.01 I-71.8932 J388.5788
G0 Z3.0
G0 X337.6138 Y-338.323
G1 F300.0 Z6.0
G2 F800.0 X-37.4589 Y-199.5001 I-89.8477 J333.3473
G0 Z3.0
G0 X319.3866 Y-394.4446
G1 F300.0 Z6.0
G2 F800.0 X-101.9733 Y-188.9733 I-70.023 J391.1807
G0 Z3.0
G0 X288.9822 Y-448.3528
G1 F300.0 Z6.0
G2 F800.0 X-167.8657 Y-167.9568 I-37.0936 J451.9317
G0 Z3.0
G0 X306.9732 Y-80.5734
G1 F300.0 Z5.6
G2 F800.0 X-287.681 Y-449.9626 I-306.8788 J-169.3179
G0 Z3.0
G0 X-88.6772 Y-89.0406
G1 F300.0 Z6.8
G2 F800.0 X0.453 Y244.4409 I338.4211 J88.2014
G0 Z3.0
G0 X-68.848 Y143.409
G1 F300.0 Z6.4
G2 F800.0 X278.9931 Y37.0594 I74.3104 J-378.973
G0 Z3.0
G0 X-88.4062 Y88.3955
G1 F300.0 Z6.4
G2 F800.0 X245.4286 Y-0.8702 I89.4474 J-334.3545
G0 Z3.0
G0 X143.4334 Y69.5061
G1 F300.0 Z6.0
G2 F800.0 X38.5844 Y-278.2618 I-390.856 J-71.8499
G0 Z3.0
G0 X-339.1863 Y-338.2009
G1 F300.0 Z7.2
G2 F800.0 X-198.4095 Y37.3686 I338.7067 J87.2095
G0 Z3.0
G0 X-393.5004 Y-319.0787
G1 F300.0 Z7.2
G2 F800.0 X-187.851 Y102.6594 I389.2802 J71.1867
G0 Z3.0
G0 X-375.0379 Y0.1072
G1 F300.0 Z7.6
G2 F800.0 X417.0523 Y417.7616 I375.1638 J248.429
G0 Z3.0
G0 X0.7093 Y375.2052
G1 F300.0 Z7.2
G2 F800.0 X418.5829 Y-417.2274 I248.7399 J-375.2269
G0 Z3.0
G0 X373.9285 Y-1.1348
G1 F300.0 Z6.8
G2 F800.0 X-417.0523 Y-418.1871 I-373.354 J-250.5101
G0 Z3.0
G0 X447.551 Y289.3832
G1 F300.0 Z6.4
G2 F800.0 X168.0105 Y-166.9916 I-441.026 J-43.661
G0 Z3.0
G0 X198.3875 Y38.3791
G1 F300.0 Z6.0
G2 F800.0 X78.9846 Y-306.4058 I-444.2372 J-39.2233
G0 Z3.0
G0 X342.1531 Y-43.1238
G1 F300.0 Z6.0
G2 F800.0 X-352.9341 Y-438.0468 I-341.9716 J-207.2685
G0 Z3.0
G0 X394.3556 Y319.882
G1 F300.0 Z5.6
G2 F800.0 X188.3424 Y-102.6403 I-393.3628 J-69.6894
G0 Z3.0
G0 X-41.9889 Y-342.1531
G1 F300.0 Z7.2
G2 F800.0 X-436.3445 Y354.0689 I-206.9188 J342.5935
G0 Z3.0
G0 X-447.1255 Y-289.3832
G1 F300.0 Z7.6
G2 F800.0 X-167.2071 Y167.2381 I440.6195 J43.9997
G0 Z3.0
G0 X-306.0312 Y80.7547
G1 F300.0 Z7.2
G2 F800.0 X285.8369 Y450.3881 I306.1607 J168.4414
G0 Z3.0
G0 X-287.7945 Y448.4873
G1 F300.0 Z6.8
G2 F800.0 X166.166 Y169.708 I38.6473 J-446.0686
G0 Z3.0
G0 X80.0 Y305.9412
G1 F300.0 Z6.4
G2 F800.0 X448.3619 Y-288.3619 I172.0287 J-304.6837
G0 Z3.0
G0 X40.0 Y340.0
G1 F300.0 Z6.4
G2 F800.0 X438.6791 Y-352.7037 I209.9408 J-340.2504
G0 Z3.0
G0 X-80.5734 Y-305.2709
G1 F300.0 Z7.2
G2 F800.0 X-448.8277 Y287.1136 I-170.2189 J304.8383
G0 Z3.0
G0 X-342.3916 Y43.1686
G1 F300.0 Z7.2
G2 F800.0 X353.2178 Y437.6212 I342.6128 J206.3822
G0 Z3.0
G0 X-198.501 Y-39.4465
G1 F300.0 Z7.2
G2 F800.0 X-79.0457 Y305.3581 I448.039 J37.8744
G0 Z3.0
G0 X-338.1812 Y338.1812
G1 F300.0 Z6.8
G2 F800.0 X37.6822 Y199.2272 I88.9244 J-337.2865
G0 Z3.0
G0 X-37.8427 Y198.164
G1 F300.0 Z6.4
G2 F800.0 X306.5888 Y79.2227 I43.8402 J-431.2217
G0 Z3.0
G0 X339.0323 Y337.6138
G1 F300.0 Z6.0
G2 F800.0 X200.0149 Y-38.3007 I-337.4801 J-88.8584
G0 Z3.0
G0 X-317.7541 Y394.0151
G1 F300.0 Z6.0
G2 F800.0 X101.4142 Y189.7541 I69.8875 J-388.805
G0 Z3.0
G0 X88.4823 Y-88.8907
G1 F300.0 Z6.8
G2 F800.0 X-245.4083 Y-1.4185 I-88.869 J341.7618
G0 Z3.0
G0 X-143.0046 Y-70.1753
G1 F300.0 Z6.4
G2 F800.0 X-37.1274 Y277.7898 I379.1984 J74.7097
G0 Z3.0
G0 X89.2598 Y88.7218
G1 F300.0 Z6.4
G2 F800.0 X0.9079 Y-245.5786 I-346.3389 J-87.2918
G0 Z3.0
G0 X37.7998 Y-200.1065
G1 F300.0 Z6.0
G2 F800.0 X-304.9872 Y-81.5664 I-33.9518 J456.7155
G0 Z3.0
G0 X69.3334 Y-143.5713
G1 F300.0 Z6.0
G2 F800.0 X-277.3256 Y-39.01 I-71.8932 J388.5788
G0 Z3.0
G0 X337.6138 Y-338.323
G1 F300.0 Z5.6
G2 F800.0 X-37.4589 Y-199.5001 I-89.8477 J333.3473
G0 Z3.0
G0 X319.3866 Y-394.4446
G1 F300.0 Z5.6
G2 F800.0 X-101.9733 Y-188.9733 I-70.023 J391.1807
G0 Z3.0
G0 X288.9822 Y-448.3528
G1 F300.0 Z5.6
G2 F800.0 X-167.8657 Y-167.9568 I-37.0936 J451.9317
G0 Z3.0
G0 X306.9732 Y-80.5734
G1 F300.0 Z5.2
G2 F800.0 X-287.681 Y-449.9626 I-306.8788 J-169.3179
G0 Z3.0
G0 X-88.6772 Y-89.0406
G1 F300.0 Z6.4
G2 F800.0 X0.453 Y244.4409 I338.4211 J88.2014
G0 Z3.0
G0 X-68.848 Y143.409
G1 F300.0 Z6.0
G2 F800.0 X278.9931 Y37.0594 I74.3104 J-378.973
G0 Z3.0
G0 X-88.4062 Y88.3955
G1 F300.0 Z6.0
G2 F800.0 X245.4286 Y-0.8702 I89.4474 J-334.3545
G0 Z3.0
G0 X143.4334 Y69.5061
G1 F300.0 Z5.6
G2 F800.0 X38.5844 Y-278.2618 I-390.856 J-71.8499
G0 Z3.0
G0 X-339.1863 Y-338.2009
G1 F300.0 Z6.8
G2 F800.0 X-198.4095 Y37.3686 I338.7067 J87.2095
G0 Z3.0
G0 X-393.5004 Y-319.0787
G1 F300.0 Z6.8
G2 F800.0 X-187.851 Y102.6594 I389.2802 J71.1867
G0 Z3.0
G0 X-375.0379 Y0.1072
G1 F300.0 Z7.2
G2 F800.0 X417.0523 Y417.7616 I375.1638 J248.429
G0 Z3.0
G0 X0.7093 Y375.2052
G1 F300.0 Z6.8
G2 F800.0 X418.5829 Y-417.2274 I248.7399 J-375.2269
G0 Z3.0
G0 X373.9285 Y-1.1348
G1 F300.0 Z6.4
G2 F800.0 X-417.0523 Y-418.1871 I-373.354 J-250.5101
G0 Z3.0
G0 X447.551 Y289.3832
G1 F300.0 Z6.0
G2 F800.0 X168.0105 Y-166.9916 I-441.026 J-43.661
G0 Z3.0
G0 X198.3875 Y38.3791
G1 F300.0 Z5.6
G2 F800.0 X78.9846 Y-306.4058 I-444.2372 J-39.2233
G0 Z3.0
G0 X342.1531 Y-43.1238
G1 F300.0 Z5.6
G2 F800.0 X-352.9341 Y-438.0468 I-341.9716 J-207.2685
G0 Z3.0
G0 X394.3556 Y319.882
G1 F300.0 Z5.2
G2 F800.0 X188.3424 Y-102.6403 I-393.3628 J-69.6894
G0 Z3.0
G0 X-41.9889 Y-342.1531
G1 F300.0 Z6.8
G2 F800.0 X-436.3445 Y354.0689 I-206.9188 J342.5935
G0 Z3.0
G0 X-447.1255 Y-289.3832
G1 F300.0 Z7.2
G2 F800.0 X-167.2071 Y167.2381 I440.6195 J43.9997
G0 Z3.0
G0 X-306.0312 Y80.7547
G1 F300.0 Z6.8
G2 F800.0 X285.8369 Y450.3881 I306.1607 J168.4414
G0 Z3.0
G0 X-287.7945 Y448.4873
G1 F300.0 Z6.4
G2 F800.0 X166.166 Y169.708 I38.6473 J-446.0686
G0 Z3.0
G0 X80.0 Y305.9412
G1 F300.0 Z6.0
G2 F800.0 X448.3619 Y-288.3619 I172.0287 J-304.6837
G0 Z3.0
G0 X40.0 Y340.0
G1 F300.0 Z6.0
G2 F800.0 X438.6791 Y-352.7037 I209.9408 J-340.2504
G0 Z3.0
G0 X-80.5734 Y-305.2709
G1 F300.0 Z6.8
G2 F800.0 X-448.8277 Y287.1136 I-170.2189 J304.8383
G0 Z3.0
G0 X-342.3916 Y43.1686
G1 F300.0 Z6.8
G2 F800.0 X353.2178 Y437.6212 I342.6128 J206.3822
G0 Z3.0
G0 X-198.501 Y-39.4465
G1 F300.0 Z6.8
G2 F800.0 X-79.0457 Y305.3581 I448.039 J37.8744
G0 Z3.0
G0 X-338.1812 Y338.1812
G1 F300.0 Z6.4
G2 F800.0 X37.6822 Y199.2272 I88.9244 J-337.2865
G0 Z3.0
G0 X-37.8427 Y198.164
G1 F300.0 Z6.0
G2 F800.0 X306.5888 Y79.2227 I43.8402 J-431.2217
G0 Z3.0
G0 X339.0323 Y337.6138
G1 F300.0 Z5.6
G2 F800.0 X200.0149 Y-38.3007 I-337.4801 J-88.8584
G0 Z3.0
G0 X-317.7541 Y394.0151
G1 F300.0 Z5.6
G2 F800.0 X101.4142 Y189.7541 I69.8875 J-388.805
G0 Z3.0
G0 X88.4823 Y-88.8907
G1 F300.0 Z6.4
G2 F800.0 X-245.4083 Y-1.4185 I-88.869 J341.7618
G0 Z3.0
G0 X-143.0046 Y-70.1753
G1 F300.0 Z6.0
G2 F800.0 X-37.1274 Y277.7898 I379.1984 J74.7097
G0 Z3.0
G0 X89.2598 Y88.7218
G1 F300.0 Z6.0
G2 F800.0 X0.9079 Y-245.5786 I-346.3389 J-87.2918
G0 Z3.0
G0 X37.7998 Y-200.1065
G1 F300.0 Z5.6
G2 F800.0 X-304.9872 Y-81.5664 I-33.9518 J456.7155
G0 Z3.0
G0 X69.3334 Y-143.5713
G1 F300.0 Z5.6
G2 F800.0 X-277.3256 Y-39.01 I-71.8932 J388.5788
G0 Z3.0
G0 X337.6138 Y-338.323
G1 F300.0 Z5.2
G2 F800.0 X-37.4589 Y-199.5001 I-89.8477 J333.3473
G0 Z3.0
G0 X319.3866 Y-394.4446
G1 F300.0 Z5.2
G2 F800.0 X-101.9733 Y-188.9733 I-70.023 J391.1807
G0 Z3.0
G0 X288.9822 Y-448.3528
G1 F300.0 Z5.2
G2 F800.0 X-167.8657 Y-167.9568 I-37.0936 J451.9317
G0 Z3.0
G0 X306.9732 Y-80.5734
G1 F300.0 Z4.8
G2 F800.0 X-287.681 Y-449.9626 I-306.8788 J-169.3179
G0 Z3.0
G0 X-88.6772 Y-89.0406
G1 F300.0 Z6.0
G2 F800.0 X0.453 Y244.4409 I338.4211 J88.2014
G0 Z3.0
G0 X-68.848 Y143.409
G1 F300.0 Z5.6
G2 F800.0 X278.9931 Y37.0594 I74.3104 J-378.973
G0 Z3.0
G0 X-88.4062 Y88.3955
G1 F300.0 Z5.6
G2 F800.0 X245.4286 Y-0.8702 I89.4474 J-334.3545
G0 Z3.0
G0 X143.4334 Y69.5061
G1 F300.0 Z5.2
G2 F800.0 X38.5844 Y-278.2618 I-390.856 J-71.8499
G0 Z3.0
G0 X-339.1863 Y-338.2009
G1 F300.0 Z6.4
G2 F800.0 X-198.4095 Y37.3686 I338.7067 J87.2095
G0 Z3.0
G0 X-393.5004 Y-319.0787
G1 F300.0 Z6.4
G2 F800.0 X-187.851 Y102.6594 I389.2802 J71.1867
G0 Z3.0
G0 X-375.0379 Y0.1072
G1 F300.0 Z6.8
G2 F800.0 X417.0523 Y417.7616 I375.1638 J248.429
G0 Z3.0
G0 X0.7093 Y375.2052
G1 F300.0 Z6.4
G2 F800.0 X418.5829 Y-417.2274 I248.7399 J-375.2269
G0 Z3.0
G0 X373.9285 Y-1.1348
G1 F300.0 Z6.0
G2 F800.0 X-417.0523 Y-418.1871 I-373.354 J-250.5101
G0 Z3.0
G0 X447.551 Y289.3832
G1 F300.0 Z5.6
G2 F800.0 X168.0105 Y-166.9916 I-441.026 J-43.661
G0 Z3.0
G0 X198.3875 Y38.3791
G1 F300.0 Z5.2
G2 F800.0 X78.9846 Y-306.4058 I-444.2372 J-39.2233
G0 Z3.0
G0 X342.1531 Y-43.1238
G1 F300.0 Z5.2
G2 F800.0 X-352.9341 Y-438.0468 I-341.9716 J-207.2685
G0 Z3.0
G0 X394.3556 Y319.882
G1 F300.0 Z4.8
G2 F800.0 X188.3424 Y-102.6403 I-393.3628 J-69.6894
G0 Z3.0
G0 X-41.9889 Y-342.1531
G1 F300.0 Z6.4
G2 F800.0 X-436.3445 Y354.0689 I-206.9188 J342.5935
G0 Z3.0
G0 X-447.1255 Y-289.3832
G1 F300.0 Z6.8
G2 F800.0 X-167.2071 Y167.2381 I440.6195 J43.9997
G0 Z3.0
G0 X-306.0312 Y80.7547
G1 F300.0 Z6.4
G2 F800.0 X285.8369 Y450.3881 I306.1607 J168.4414
G0 Z3.0
G0 X-287.7945 Y448.4873
G1 F300.0 Z6.0
G2 F800.0 X166.166 Y169.708 I38.6473 J-446.0686
G0 Z3.0
G0 X80.0 Y305.9412
G1 F300.0 Z5.6
G2 F800.0 X448.3619 Y-288.3619 I172.0287 J-304.6837
G0 Z3.0
G0 X40.0 Y340.0
G1 F300.0 Z5.6
G2 F800.0 X438.6791 Y-352.7037 I209.9408 J-340.2504
G0 Z3.0
G0 X-80.5734 Y-305.2709
G1 F300.0 Z6.4
G2 F800.0 X-448.8277 Y287.1136 I-170.2189 J304.8383
G0 Z3.0
G0 X-342.3916 Y43.1686
G1 F300.0 Z6.4
G2 F800.0 X353.2178 Y437.6212 I342.6128 J206.3822
G0 Z3.0
G0 X-198.501 Y-39.4465
G1 F300.0 Z6.4
G2 F800.0 X-79.0457 Y305.3581 I448.039 J37.8744
G0 Z3.0
G0 X-338.1812 Y338.1812
G1 F300.0 Z6.0
G2 F800.0 X37.6822 Y199.2272 I88.9244 J-337.2865
G0 Z3.0
G0 X-37.8427 Y198.164
G1 F300.0 Z5.6
G2 F800.0 X306.5888 Y79.2227 I43.8402 J-431.2217
G0 Z3.0
G0 X339.0323 Y337.6138
G1 F300.0 Z5.2
G2 F800.0 X200.0149 Y-38.3007 I-337.4801 J-88.8584
G0 Z3.0
G0 X-317.7541 Y394.0151
G1 F300.0 Z5.2
G2 F800.0 X101.4142 Y189.7541 I69.8875 J-388.805
G0 Z3.0
G0 X88.4823 Y-88.8907
G1 F300.0 Z6.0
G2 F800.0 X-245.4083 Y-1.4185 I-88.869 J341.7618
G0 Z3.0
G0 X-143.0046 Y-70.1753
G1 F300.0 Z5.6
G2 F800.0 X-37.1274 Y277.7898 I379.1984 J74.7097
G0 Z3.0
G0 X89.2598 Y88.7218
G1 F300.0 Z5.6
G2 F800.0 X0.9079 Y-245.5786 I-346.3389 J-87.2918
G0 Z3.0
G0 X37.7998 Y-200.1065
G1 F300.0 Z5.2
G2 F800.0 X-304.9872 Y-81.5664 I-33.9518 J456.7155
G0 Z3.0
G0 X69.3334 Y-143.5713
G1 F300.0 Z5.2
G2 F800.0 X-277.3256 Y-39.01 I-71.8932 J388.5788
G0 Z3.0
G0 X337.6138 Y-338.323
G1 F300.0 Z4.8
G2 F800.0 X-37.4589 Y-199.5001 I-89.8477 J333.3473
G0 Z3.0
G0 X319.3866 Y-394.4446
G1 F300.0 Z4.8
G2 F800.0 X-101.9733 Y-188.9733 I-70.023 J391.1807
G0 Z3.0
G0 X288.9822 Y-448.3528
G1 F300.0 Z4.8
G2 F800.0 X-167.8657 Y-167.9568 I-37.0936 J451.9317
G0 Z3.0
G0 X306.9732 Y-80.5734
G1 F300.0 Z4.4
G2 F800.0 X-287.681 Y-449.9626 I-306.8788 J-169.3179
G0 Z3.0
G0 X-88.6772 Y-89.0406
G1 F300.0 Z5.6
G2 F800.0 X0.453 Y244.4409 I338.4211 J88.2014
G0 Z3.0
G0 X-68.848 Y143.409
G1 F300.0 Z5.2
G2 F800.0 X278.9931 Y37.0594 I74.3104 J-378.973
G0 Z3.0
G0 X-88.4062 Y88.3955
G1 F300.0 Z5.2
G2 F800.0 X245.4286 Y-0.8702 I89.4474 J-334.3545
G0 Z3.0
G0 X143.4334 Y69.5061
G1 F300.0 Z4.8
G2 F800.0 X38.5844 Y-278.2618 I-390.856 J-71.8499
G0 Z3.0
G0 X-339.1863 Y-338.2009
G1 F300.0 Z6.0
G2 F800.0 X-198.4095 Y37.3686 I338.7067 J87.2095
G0 Z3.0
G0 X-393.5004 Y-319.0787
G1 F300.0 Z6.0
G2 F800.0 X-187.851 Y102.6594 I389.2802 J71.1867
G0 Z3.0
G0 X-375.0379 Y0.1072
G1 F300.0 Z6.4
G2 F800.0 X417.0523 Y417.7616 I375.1638 J248.429
G0 Z3.0
G0 X0.7093 Y375.2052
G1 F300.0 Z6.0
G2 F800.0 X418.5829 Y-417.2274 I248.7399 J-375.2269
G0 Z3.0
G0 X373.9285 Y-1.1348
G1 F300.0 Z5.6
G2 F800.0 X-417.0523 Y-418.1871 I-373.354 J-250.5101
G0 Z3.0
G0 X447.551 Y289.3832
G1 F300.0 Z5.2
G2 F800.0 X168.0105 Y-166.9916 I-441.026 J-43.661
G0 Z3.0
G0 X198.3875 Y38.3791
G1 F300.0 Z4.8
G2 F800.0 X78.9846 Y-306.4058 I-444.2372 J-39.2233
G0 Z3.0
G0 X342.1531 Y-43.1238
G1 F300.0 Z4.8
G2 F800.0 X-352.9341 Y-438.0468 I-341.9716 J-207.2685
G0 Z3.0
G0 X394.3556 Y319.882
G1 F300.0 Z4.4
G2 F800.0 X188.3424 Y-102.6403 I-393.3628 J-69.6894
G0 Z3.0
G0 X-41.9889 Y-342.1531
G1 F300.0 Z6.0
G2 F800.0 X-436.3445 Y354.0689 I-206.9188 J342.5935
G0 Z3.0
G0 X-447.1255 Y-289.3832
G1 F300.0 Z6.4
G2 F800.0 X-167.2071 Y167.2381 I440.6195 J43.9997
G0 Z3.0
G0 X-306.0312 Y80.7547
G1 F300.0 Z6.0
G2 F800.0 X285.8369 Y450.3881 I306.1607 J168.4414
G0 Z3.0
G0 X-287.7945 Y448.4873
G1 F300.0 Z5.6
G2 F800.0 X166.166 Y169.708 I38.6473 J-446.0686
G0 Z3.0
G0 X80.0 Y305.9412
G1 F300.0 Z5.2
G2 F800.0 X448.3619 Y-288.3619 I172.0287 J-304.6837
G0 Z3.0
G0 X40.0 Y340.0
G1 F300.0 Z5.2
G2 F800.0 X438.6791 Y-352.7037 I209.9408 J-340.2504
G0 Z3.0
G0 X-80.5734 Y-305.2709
G1 F300.0 Z6.0
G2 F800.0 X-448.8277 Y287.1136 I-170.2189 J304.8383
G0 Z3.0
G0 X-342.3916 Y43.1686
G1 F300.0 Z6.0
G2 F800.0 X353.2178 Y437.6212 I342.6128 J206.3822
G0 Z3.0
G0 X-198.501 Y-39.4465
G1 F300.0 Z6.0
G2 F800.0 X-79.0457 Y305.3581 I448.039 J37.8744
G0 Z3.0
G0 X-338.1812 Y338.1812
G1 F300.0 Z5.6
G2 F800.0 X37.6822 Y199.2272 I88.9244 J-337.2865
G0 Z3.0
G0 X-37.8427 Y198.164
G1 F300.0 Z5.2
G2 F800.0 X306.5888 Y79.2227 I43.8402 J-431.2217
G0 Z3.0
G0 X339.0323 Y337.6138
G1 F300.0 Z4.8
G2 F800.0 X200.0149 Y-38.3007 I-337.4801 J-88.8584
G0 Z3.0
G0 X-317.7541 Y394.0151
G1 F300.0 Z4.8
G2 F800.0 X101.4142 Y189.7541 I69.8875 J-388.805
G0 Z3.0
G0 X88.4823 Y-88.8907
G1 F300.0 Z5.6
G2 F800.0 X-245.4083 Y-1.4185 I-88.869 J341.7618
G0 Z3.0
G0 X-143.0046 Y-70.1753
G1 F300.0 Z5.2
G2 F800.0 X-37.1274 Y277.7898 I379.1984 J74.7097
G0 Z3.0
G0 X89.2598 Y88.7218
G1 F300.0 Z5.2
G2 F800.0 X0.9079 Y-245.5786 I-346.3389 J-87.2918
G0 Z3.0
G0 X37.7998 Y-200.1065
G1 F300.0 Z4.8
G2 F800.0 X-304.9872 Y-81.5664 I-33.9518 J456.7155
G0 Z3.0
G0 X69.3334 Y-143.5713
G1 F300.0 Z4.8
G2 F800.0 X-277.3256 Y-39.01 I-71.8932 J388.5788
G0 Z3.0
G0 X337.6138 Y-338.323
G1 F300.0 Z4.4
G2 F800.0 X-37.4589 Y-199.5001 I-89.8477 J333.3473
G0 Z3.0
G0 X319.3866 Y-394.4446
G1 F300.0 Z4.4
G2 F800.0 X-101.9733 Y-188.9733 I-70.023 J391.1807
G0 Z3.0
G0 X288.9822 Y-448.3528
G1 F300.0 Z4.4
G2 F800.0 X-167.8657 Y-167.9568 I-37.0936 J451.9317
G0 Z3.0
G0 X306.9732 Y-80.5734
G1 F300.0 Z4.0
G2 F800.0 X-287.681 Y-449.9626 I-306.8788 J-169.3179
G0 Z3.0
G0 X-88.6772 Y-89.0406
G1 F300.0 Z5.2
G2 F800.0 X0.453 Y244.4409 I338.4211 J88.2014
G0 Z3.0
G0 X-68.848 Y143.409
G1 F300.0 Z4.8
G2 F800.0 X278.9931 Y37.0594 I74.3104 J-378.973
G0 Z3.0
G0 X-88.4062 Y88.3955
G1 F300.0 Z4.8
G2 F800.0 X245.4286 Y-0.8702 I89.4474 J-334.3545
G0 Z3.0
G0 X143.4334 Y69.5061
G1 F300.0 Z4.4
G2 F800.0 X38.5844 Y-278.2618 I-390.856 J-71.8499
G0 Z3.0
G0 X-339.1863 Y-338.2009
G1 F300.0 Z5.6
G2 F800.0 X-198.4095 Y37.3686 I338.7067 J87.2095
G0 Z3.0
G0 X-393.5004 Y-319.0787
G1 F300.0 Z5.6
G2 F800.0 X-187.851 Y102.6594 I389.2802 J71.1867
G0 Z3.0
G0 X-375.0379 Y0.1072
G1 F300.0 Z6.0
G2 F800.0 X417.0523 Y417.7616 I375.1638 J248.429
G0 Z3.0
G0 X0.7093 Y375.2052
G1 F300.0 Z5.6
G2 F800.0 X418.5829 Y-417.2274 I248.7399 J-375.2269
G0 Z3.0
G0 X373.9285 Y-1.1348
G1 F300.0 Z5.2
G2 F800.0 X-417.0523 Y-418.1871 I-373.354 J-250.5101
G0 Z3.0
G0 X447.551 Y289.3832
G1 F300.0 Z4.8
G2 F800.0 X168.0105 Y-166.9916 I-441.026 J-43.661
G0 Z3.0
G0 X198.3875 Y38.3791
G1 F300.0 Z4.4
G2 F800.0 X78.9846 Y-306.4058 I-444.2372 J-39.2233
G0 Z3.0
G0 X342.1531 Y-43.1238
G1 F300.0 Z4.4
G2 F800.0 X-352.9341 Y-438.0468 I-341.9716 J-207.2685
G0 Z3.0
G0 X394.3556 Y319.882
G1 F300.0 Z4.0
G2 F800.0 X188.3424 Y-102.6403 I-393.3628 J-69.6894
G0 Z3.0
G0 X-41.9889 Y-342.1531
G1 F300.0 Z5.6
G2 F800.0 X-436.3445 Y354.0689 I-206.9188 J342.5935
G0 Z3.0
G0 X-447.1255 Y-289.3832
G1 F300.0 Z6.0
G2 F800.0 X-167.2071 Y167.2381 I440.6195 J43.9997
G0 Z3.0
G0 X-306.0312 Y80.7547
G1 F300.0 Z5.6
G2 F800.0 X285.8369 Y450.3881 I306.1607 J168.4414
G0 Z3.0
G0 X-287.7945 Y448.4873
G1 F300.0 Z5.2
G2 F800.0 X166.166 Y169.708 I38.6473 J-446.0686
G0 Z3.0
G0 X80.0 Y305.9412
G1 F300.0 Z4.8
G2 F800.0 X448.3619 Y-288.3619 I172.0287 J-304.6837
G0 Z3.0
G0 X40.0 Y340.0
G1 F300.0 Z4.8
G2 F800.0 X438.6791 Y-352.7037 I209.9408 J-340.2504
G0 Z3.0
G0 X-80.5734 Y-305.2709
G1 F300.0 Z5.6
G2 F800.0 X-448.8277 Y287.1136 I-170.2189 J304.8383
G0 Z3.0
G0 X-342.3916 Y43.1686
G1 F300.0 Z5.6
G2 F800.0 X353.2178 Y437.6212 I342.6128 J206.3822
G0 Z3.0
G0 X-198.501 Y-39.4465
G1 F300.0 Z5.6
G2 F800.0 X-79.0457 Y305.3581 I448.039 J37.8744
G0 Z3.0
G0 X-338.1812 Y338.1812
G1 F300.0 Z5.2
G2 F800.0 X37.6822 Y199.2272 I88.9244 J-337.2865
G0 Z3.0
G0 X-37.8427 Y198.164
G1 F300.0 Z4.8
G2 F800.0 X306.5888 Y79.2227 I43.8402 J-431.2217
G0 Z3.0
G0 X339.0323 Y337.6138
G1 F300.0 Z4.4
G2 F800.0 X200.0149 Y-38.3007 I-337.4801 J-88.8584
G0 Z3.0
G0 X-317.7541 Y394.0151
G1 F300.0 Z4.4
G2 F800.0 X101.4142 Y189.7541 I69.8875 J-388.805
G0 Z3.0
G0 X88.4823 Y-88.8907
G1 F300.0 Z5.2
G2 F800.0 X-245.4083 Y-1.4185 I-88.869 J341.7618
G0 Z3.0
G0 X-143.0046 Y-70.1753
G1 F300.0 Z4.8
G2 F800.0 X-37.1274 Y277.7898 I379.1984 J74.7097
G0 Z3.0
G0 X89.2598 Y88.7218
G1 F300.0 Z4.8
G2 F800.0 X0.9079 Y-245.5786 I-346.3389 J-87.2918
G0 Z3.0
G0 X37.7998 Y-200.1065
G1 F300.0 Z4.4
G2 F800.0 X-304.9872 Y-81.5664 I-33.9518 J456.7155
G0 Z3.0
G0 X69.3334 Y-143.5713
G1 F300.0 Z4.4
G2 F800.0 X-277.3256 Y-39.01 I-71.8932 J388.5788
G0 Z3.0
G0 X337.6138 Y-338.323
G1 F300.0 Z4.0
G2 F800.0 X-37.4589 Y-199.5001 I-89.8477 J333.3473
G0 Z3.0
G0 X319.3866 Y-394.4446
G1 F300.0 Z4.0
G2 F800.0 X-101.9733 Y-188.9733 I-70.023 J391.1807
G0 Z3.0
G0 X288.9822 Y-448.3528
G1 F300.0 Z4.0
G2 F800.0 X-167.8657 Y-167.9568 I-37.0936 J451.9317
G0 Z3.0
G0 X306.9732 Y-80.5734
G1 F300.0 Z3.6
G2 F800.0 X-287.681 Y-449.9626 I-306.8788 J-169.3179
G0 Z3.0
G0 X-88.6772 Y-89.0406
G1 F300.0 Z4.8
G2 F800.0 X0.453 Y244.4409 I338.4211 J88.2014
G0 Z3.0
G0 X-68.848 Y143.409
G1 F300.0 Z4.4
G2 F800.0 X278.9931 Y37.0594 I74.3104 J-378.973
G0 Z3.0
G0 X-88.4062 Y88.3955
G1 F300.0 Z4.4
G2 F800.0 X245.4286 Y-0.8702 I89.4474 J-334.3545
G0 Z3.0
G0 X143.4334 Y69.5061
G1 F300.0 Z4.0
G2 F800.0 X38.5844 Y-278.2618 I-390.856 J-71.8499
G0 Z3.0
G0 X-339.1863 Y-338.2009
G1 F300.0 Z5.2
G2 F800.0 X-198.4095 Y37.3686 I338.7067 J87.2095
G0 Z3.0
G0 X-393.5004 Y-319.0787
G1 F300.0 Z5.2
G2 F800.0 X-187.851 Y102.6594 I389.2802 J71.1867
G0 Z3.0
G0 X-375.0379 Y0.1072
G1 F300.0 Z5.6
G2 F800.0 X417.0523 Y417.7616 I375.1638 J248.429
G0 Z3.0
G0 X0.7093 Y375.2052
G1 F300.0 Z5.2
G2 F800.0 X418.5829 Y-417.2274 I248.7399 J-375.2269
G0 Z3.0
G0 X373.9285 Y-1.1348
G1 F300.0 Z4.8
G2 F800.0 X-417.0523 Y-418.1871 I-373.354 J-250.5101
G0 Z3.0
G0 X447.551 Y289.3832
G1 F300.0 Z4.4
G2 F800.0 X168.0105 Y-166.9916 I-441.026 J-43.661
G0 Z3.0
G0 X198.3875 Y38.3791
G1 F300.0 Z4.0
G2 F800.0 X78.9846 Y-306.4058 I-444.2372 J-39.2233
G0 Z3.0
G0 X342.1531 Y-43.1238
G1 F300.0 Z4.0
G2 F800.0 X-352.9341 Y-438.0468 I-341.9716 J-207.2685
G0 Z3.0
G0 X394.3556 Y319.882
G1 F300.0 Z3.6
G2 F800.0 X188.3424 Y-102.6403 I-393.3628 J-69.6894
G0 Z3.0
G0 X-41.9889 Y-342.1531
G1 F300.0 Z5.2
G2 F800.0 X-436.3445 Y354.0689 I-206.9188 J342.5935
G0 Z3.0
G0 X-447.1255 Y-289.3832
G1 F300.0 Z5.6
G2 F800.0 X-167.2071 Y167.2381 I440.6195 J43.9997
G0 Z3.0
G0 X-306.0312 Y80.7547
G1 F300.0 Z5.2
G2 F800.0 X285.8369 Y450.3881 I306.1607 J168.4414
G0 Z3.0
G0 X-287.7945 Y448.4873
G1 F300.0 Z4.8
G2 F800.0 X166.166 Y169.708 I38.6473 J-446.0686
G0 Z3.0
G0 X80.0 Y305.9412
G1 F300.0 Z4.4
G2 F800.0 X448.3619 Y-288.3619 I172.0287 J-304.6837
G0 Z3.0
G0 X40.0 Y340.0
G1 F300.0 Z4.4
G2 F800.0 X438.6791 Y-352.7037 I209.9408 J-340.2504
G0 Z3.0
G0 X-80.5734 Y-305.2709
G1 F300.0 Z5.2
G2 F800.0 X-448.8277 Y287.1136 I-170.2189 J304.8383
G0 Z3.0
G0 X-342.3916 Y43.1686
G1 F300.0 Z5.2
G2 F800.0 X353.2178 Y437.6212 I342.6128 J206.3822
G0 Z3.0
G0 X-198.501 Y-39.4465
G1 F300.0 Z5.2
G2 F800.0 X-79.0457 Y305.3581 I448.039 J37.8744
G0 Z3.0
G0 X-338.1812 Y338.1812
G1 F300.0 Z4.8
G2 F800.0 X37.6822 Y199.2272 I88.9244 J-337.2865
G0 Z3.0
G0 X-37.8427 Y198.164
G1 F300.0 Z4.4
G2 F800.0 X306.5888 Y79.2227 I43.8402 J-431.2217
G0 Z3.0
G0 X339.0323 Y337.6138
G1 F300.0 Z4.0
G2 F800.0 X200.0149 Y-38.3007 I-337.4801 J-88.8584
G0 Z3.0
G0 X-317.7541 Y394.0151
G1 F300.0 Z4.0
G2 F800.0 X101.4142 Y189.7541 I69.8875 J-388.805
G0 Z3.0
G0 X88.4823 Y-88.8907
G1 F300.0 Z4.8
G2 F800.0 X-245.4083 Y-1.4185 I-88.869 J341.7618
G0 Z3.0
G0 X-143.0046 Y-70.1753
G1 F300.0 Z4.4
G2 F800.0 X-37.1274 Y277.7898 I379.1984 J74.7097
G0 Z3.0
G0 X89.2598 Y88.7218
G1 F300.0 Z4.4
G2 F800.0 X0.9079 Y-245.5786 I-346.3389 J-87.2918
G0 Z3.0
G0 X37.7998 Y-200.1065
G1 F300.0 Z4.0
G2 F800.0 X-304.9872 Y-81.5664 I-33.9518 J456.7155
G0 Z3.0
G0 X69.3334 Y-143.5713
G1 F300.0 Z4.0
G2 F800.0 X-277.3256 Y-39.01 I-71.8932 J388.5788
G0 Z3.0
G0 X337.6138 Y-338.323
G1 F300.0 Z3.6
G2 F800.0 X-37.4589 Y-199.5001 I-89.8477 J333.3473
G0 Z3.0
G0 X319.3866 Y-394.4446
G1 F300.0 Z3.6
G2 F800.0 X-101.9733 Y-188.9733 I-70.023 J391.1807
G0 Z3.0
G0 X288.9822 Y-448.3528
G1 F300.0 Z3.6
G2 F800.0 X-167.8657 Y-167.9568 I-37.0936 J451.9317
G0 Z3.0
G0 X306.9732 Y-80.5734
G1 F300.0 Z3.2
G2 F800.0 X-287.681 Y-449.9626 I-306.8788 J-169.3179
G0 Z3.0
G0 X-88.6772 Y-89.0406
G1 F300.0 Z4.4
G2 F800.0 X0.453 Y244.4409 I338.4211 J88.2014
G0 Z3.0
G0 X-68.848 Y143.409
G1 F300.0 Z4.0
G2 F800.0 X278.9931 Y37.0594 I74.3104 J-378.973
G0 Z3.0
G0 X-88.4062 Y88.3955
G1 F300.0 Z4.0
G2 F800.0 X245.4286 Y-0.8702 I89.4474 J-334.3545
G0 Z3.0
G0 X143.4334 Y69.5061
G1 F300.0 Z3.6
G2 F800.0 X38.5844 Y-278.2618 I-390.856 J-71.8499
G0 Z3.0
G0 X-339.1863 Y-338.2009
G1 F300.0 Z4.8
G2 F800.0 X-198.4095 Y37.3686 I338.7067 J87.2095
G0 Z3.0
G0 X-393.5004 Y-319.0787
G1 F300.0 Z4.8
G2 F800.0 X-187.851 Y102.6594 I389.2802 J71.1867
G0 Z3.0
G0 X-375.0379 Y0.1072
G1 F300.0 Z5.2
G2 F800.0 X417.0523 Y417.7616 I375.1638 J248.429
G0 Z3.0
G0 X0.7093 Y375.2052
G1 F300.0 Z4.8
G2 F800.0 X418.5829 Y-417.2274 I248.7399 J-375.2269
G0 Z3.0
G0 X373.9285 Y-1.1348
G1 F300.0 Z4.4
G2 F800.0 X-417.0523 Y-418.1871 I-373.354 J-250.5101
G0 Z3.0
G0 X447.551 Y289.3832
G1 F300.0 Z4.0
G2 F800.0 X168.0105 Y-166.9916 I-441.026 J-43.661
G0 Z3.0
G0 X198.3875 Y38.3791
G1 F300.0 Z3.6
G2 F800.0 X78.9846 Y-306.4058 I-444.2372 J-39.2233
G0 Z3.0
G0 X342.1531 Y-43.1238
G1 F300.0 Z3.6
G2 F800.0 X-352.9341 Y-438.0468 I-341.9716 J-207.2685
G0 Z3.0
G0 X394.3556 Y319.882
G1 F300.0 Z3.2
G2 F800.0 X188.3424 Y-102.6403 I-393.3628 J-69.6894
G0 Z3.0
G0 X-41.9889 Y-342.1531
G1 F300.0 Z4.8
G2 F800.0 X-436.3445 Y354.0689 I-206.9188 J342.5935
G0 Z3.0
G0 X-447.1255 Y-289.3832
G1 F300.0 Z5.2
G2 F800.0 X-167.2071 Y167.2381 I440.6195 J43.9997
G0 Z3.0
G0 X-306.0312 Y80.7547
G1 F300.0 Z4.8
G2 F800.0 X285.8369 Y450.3881 I306.1607 J168.4414
G0 Z3.0
G0 X-287.7945 Y448.4873
G1 F300.0 Z4.4
G2 F800.0 X166.166 Y169.708 I38.6473 J-446.0686
G0 Z3.0
G0 X80.0 Y305.9412
G1 F300.0 Z4.0
G2 F800.0 X448.3619 Y-288.3619 I172.0287 J-304.6837
G0 Z3.0
G0 X40.0 Y340.0
G1 F300.0 Z4.0
G2 F800.0 X438.6791 Y-352.7037 I209.9408 J-340.2504
G0 Z3.0
G0 X-80.5734 Y-305.2709
G1 F300.0 Z4.8
G2 F800.0 X-448.8277 Y287.1136 I-170.2189 J304.8383
G0 Z3.0
G0 X-342.3916 Y43.1686
G1 F300.0 Z4.8
G2 F800.0 X353.2178 Y437.6212 I342.6128 J206.3822
G0 Z3.0
G0 X-198.501 Y-39.4465
G1 F300.0 Z4.8
G2 F800.0 X-79.0457 Y305.3581 I448.039 J37.8744
G0 Z3.0
G0 X-338.1812 Y338.1812
G1 F300.0 Z4.4
G2 F800.0 X37.6822 Y199.2272 I88.9244 J-337.2865
G0 Z3.0
G0 X-37.8427 Y198.164
G1 F300.0 Z4.0
G2 F800.0 X306.5888 Y79.2227 I43.8402 J-431.2217
G0 Z3.0
G0 X339.0323 Y337.6138
G1 F300.0 Z3.6
G2 F800.0 X200.0149 Y-38.3007 I-337.4801 J-88.8584
G0 Z3.0
G0 X-317.7541 Y394.0151
G1 F300.0 Z3.6
G2 F800.0 X101.4142 Y189.7541 I69.8875 J-388.805
G0 Z3.0
G0 X88.4823 Y-88.8907
G1 F300.0 Z4.4
G2 F800.0 X-245.4083 Y-1.4185 I-88.869 J341.7618
G0 Z3.0
G0 X-143.0046 Y-70.1753
G1 F300.0 Z4.0
G2 F800.0 X-37.1274 Y277.7898 I379.1984 J74.7097
G0 Z3.0
G0 X89.2598 Y88.7218
G1 F300.0 Z4.0
G2 F800.0 X0.9079 Y-245.5786 I-346.3389 J-87.2918
G0 Z3.0
G0 X37.7998 Y-200.1065
G1 F300.0 Z3.6
G2 F800.0 X-304.9872 Y-81.5664 I-33.9518 J456.7155
G0 Z3.0
G0 X69.3334 Y-143.5713
G1 F300.0 Z3.6
G2 F800.0 X-277.3256 Y-39.01 I-71.8932 J388.5788
G0 Z3.0
G0 X337.6138 Y-338.323
G1 F300.0 Z3.2
G2 F800.0 X-37.4589 Y-199.5001 I-89.8477 J333.3473
G0 Z3.0
G0 X319.3866 Y-394.4446
G1 F300.0 Z3.2
G2 F800.0 X-101.9733 Y-188.9733 I-70.023 J391.1807
G0 Z3.0
G0 X288.9822 Y-448.3528
G1 F300.0 Z3.2
G2 F800.0 X-167.8657 Y-167.9568 I-37.0936 J451.9317
G0 Z3.0
G0 X306.9732 Y-80.5734
G2 X-287.681 Y-449.9626 I-306.8788 J-169.3179
G0 X-88.6772 Y-89.0406
G1 F300.0 Z4.0
G2 F800.0 X0.453 Y244.4409 I338.4211 J88.2014
G0 Z3.0
G0 X-68.848 Y143.409
G1 F300.0 Z3.6
G2 F800.0 X278.9931 Y37.0594 I74.3104 J-378.973
G0 Z3.0
G0 X-88.4062 Y88.3955
G1 F300.0 Z3.6
G2 F800.0 X245.4286 Y-0.8702 I89.4474 J-334.3545
G0 Z3.0
G0 X143.4334 Y69.5061
G1 F300.0 Z3.2
G2 F800.0 X38.5844 Y-278.2618 I-390.856 J-71.8499
G0 Z3.0
G0 X-339.1863 Y-338.2009
G1 F300.0 Z4.4
G2 F800.0 X-198.4095 Y37.3686 I338.7067 J87.2095
G0 Z3.0
G0 X-393.5004 Y-319.0787
G1 F300.0 Z4.4
G2 F800.0 X-187.851 Y102.6594 I389.2802 J71.1867
G0 Z3.0
G0 X-375.0379 Y0.1072
G1 F300.0 Z4.8
G2 F800.0 X417.0523 Y417.7616 I375.1638 J248.429
G0 Z3.0
G0 X0.7093 Y375.2052
G1 F300.0 Z4.4
G2 F800.0 X418.5829 Y-417.2274 I248.7399 J-375.2269
G0 Z3.0
G0 X373.9285 Y-1.1348
G1 F300.0 Z4.0
G2 F800.0 X-417.0523 Y-418.1871 I-373.354 J-250.5101
G0 Z3.0
G0 X447.551 Y289.3832
G1 F300.0 Z3.6
G2 F800.0 X168.0105 Y-166.9916 I-441.026 J-43.661
G0 Z3.0
G0 X198.3875 Y38.3791
G1 F300.0 Z3.2
G2 F800.0 X78.9846 Y-306.4058 I-444.2372 J-39.2233
G0 Z3.0
G0 X342.1531 Y-43.1238
G1 F300.0 Z3.2
G2 F800.0 X-352.9341 Y-438.0468 I-341.9716 J-207.2685
G0 Z3.0
G0 X394.3556 Y319.882
G2 X188.3424 Y-102.6403 I-393.3628 J-69.6894
G0 X-41.9889 Y-342.1531
G1 F300.0 Z4.4
G2 F800.0 X-436.3445 Y354.0689 I-206.9188 J342.5935
G0 Z3.0
G0 X-447.1255 Y-289.3832
G1 F300.0 Z4.8
G2 F800.0 X-167.2071 Y167.2381 I440.6195 J43.9997
G0 Z3.0
G0 X-306.0312 Y80.7547
G1 F300.0 Z4.4
G2 F800.0 X285.8369 Y450.3881 I306.1607 J168.4414
G0 Z3.0
G0 X-287.7945 Y448.4873
G1 F300.0 Z4.0
G2 F800.0 X166.166 Y169.708 I38.6473 J-446.0686
G0 Z3.0
G0 X80.0 Y305.9412
G1 F300.0 Z3.6
G2 F800.0 X448.3619 Y-288.3619 I172.0287 J-304.6837
G0 Z3.0
G0 X40.0 Y340.0
G1 F300.0 Z3.6
G2 F800.0 X438.6791 Y-352.7037 I209.9408 J-340.2504
G0 Z3.0
G0 X-80.5734 Y-305.2709
G1 F300.0 Z4.4
G2 F800.0 X-448.8277 Y287.1136 I-170.2189 J304.8383
G0 Z3.0
G0 X-342.3916 Y43.1686
G1 F300.0 Z4.4
G2 F800.0 X353.2178 Y437.6212 I342.6128 J206.3822
G0 Z3.0
G0 X-198.501 Y-39.4465
G1 F300.0 Z4.4
G2 F800.0 X-79.0457 Y305.3581 I448.039 J37.8744
G0 Z3.0
G0 X-338.1812 Y338.1812
G1 F300.0 Z4.0
G2 F800.0 X37.6822 Y199.2272 I88.9244 J-337.2865
G0 Z3.0
G0 X-37.8427 Y198.164
G1 F300.0 Z3.6
G2 F800.0 X306.5888 Y79.2227 I43.8402 J-431.2217
G0 Z3.0
G0 X339.0323 Y337.6138
G1 F300.0 Z3.2
G2 F800.0 X200.0149 Y-38.3007 I-337.4801 J-88.8584
G0 Z3.0
G0 X-317.7541 Y394.0151
G1 F300.0 Z3.2
G2 F800.0 X101.4142 Y189.7541 I69.8875 J-388.805
G0 Z3.0
G0 X88.4823 Y-88.8907
G1 F300.0 Z4.0
G2 F800.0 X-245.4083 Y-1.4185 I-88.869 J341.7618
G0 Z3.0
G0 X-143.0046 Y-70.1753
G1 F300.0 Z3.6
G2 F800.0 X-37.1274 Y277.7898 I379.1984 J74.7097
G0 Z3.0
G0 X89.2598 Y88.7218
G1 F300.0 Z3.6
G2 F800.0 X0.9079 Y-245.5786 I-346.3389 J-87.2918
G0 Z3.0
G0 X37.7998 Y-200.1065
G1 F300.0 Z3.2
G2 F800.0 X-304.9872 Y-81.5664 I-33.9518 J456.7155
G0 Z3.0
G0 X69.3334 Y-143.5713
G1 F300.0 Z3.2
G2 F800.0 X-277.3256 Y-39.01 I-71.8932 J388.5788
G0 Z3.0
G0 X337.6138 Y-338.323
G2 X-37.4589 Y-199.5001 I-89.8477 J333.3473
G0 X319.3866 Y-394.4446
G2 X-101.9733 Y-188.9733 I-70.023 J391.1807
G0 X288.9822 Y-448.3528
G2 X-167.8657 Y-167.9568 I-37.0936 J451.9317
G0 X-88.6772 Y-89.0406
G1 F300.0 Z3.6
G2 F800.0 X0.453 Y244.4409 I338.4211 J88.2014
G0 Z3.0
G0 X-68.848 Y143.409
G1 F300.0 Z3.2
G2 F800.0 X278.9931 Y37.0594 I74.3104 J-378.973
G0 Z3.0
G0 X-88.4062 Y88.3955
G1 F300.0 Z3.2
G2 F800.0 X245.4286 Y-0.8702 I89.4474 J-334.3545
G0 Z3.0
G0 X143.4334 Y69.5061
G2 X38.5844 Y-278.2618 I-390.856 J-71.8499
G0 X-339.1863 Y-338.2009
G1 F300.0 Z4.0
G2 F800.0 X-198.4095 Y37.3686 I338.7067 J87.2095
G0 Z3.0
G0 X-393.5004 Y-319.0787
G1 F300.0 Z4.0
G2 F800.0 X-187.851 Y102.6594 I389.2802 J71.1867
G0 Z3.0
G0 X-375.0379 Y0.1072
G1 F300.0 Z4.4
G2 F800.0 X417.0523 Y417.7616 I375.1638 J248.429
G0 Z3.0
G0 X0.7093 Y375.2052
G1 F300.0 Z4.0
G2 F800.0 X418.5829 Y-417.2274 I248.7399 J-375.2269
G0 Z3.0
G0 X373.9285 Y-1.1348
G1 F300.0 Z3.6
G2 F800.0 X-417.0523 Y-418.1871 I-373.354 J-250.5101
G0 Z3.0
G0 X447.551 Y289.3832
G1 F300.0 Z3.2
G2 F800.0 X168.0105 Y-166.9916 I-441.026 J-43.661
G0 Z3.0
G0 X198.3875 Y38.3791
G2 X78.9846 Y-306.4058 I-444.2372 J-39.2233
G0 X342.1531 Y-43.1238
G2 X-352.9341 Y-438.0468 I-341.9716 J-207.2685
G0 X-41.9889 Y-342.1531
G1 F300.0 Z4.0
G2 F800.0 X-436.3445 Y354.0689 I-206.9188 J342.5935
G0 Z3.0
G0 X-447.1255 Y-289.3832
G1 F300.0 Z4.4
G2 F800.0 X-167.2071 Y167.2381 I440.6195 J43.9997
G0 Z3.0
G0 X-306.0312 Y80.7547
G1 F300.0 Z4.0
G2 F800.0 X285.8369 Y450.3881 I306.1607 J168.4414
G0 Z3.0
G0 X-287.7945 Y448.4873
G1 F300.0 Z3.6
G2 F800.0 X166.166 Y169.708 I38.6473 J-446.0686
G0 Z3.0
G0 X80.0 Y305.9412
G1 F300.0 Z3.2
G2 F800.0 X448.3619 Y-288.3619 I172.0287 J-304.6837
G0 Z3.0
G0 X40.0 Y340.0
G1 F300.0 Z3.2
G2 F800.0 X438.6791 Y-352.7037 I209.9408 J-340.2504
G0 Z3.0
G0 X-80.5734 Y-305.2709
G1 F300.0 Z4.0
G2 F800.0 X-448.8277 Y287.1136 I-170.2189 J304.8383
G0 Z3.0
G0 X-342.3916 Y43.1686
G1 F300.0 Z4.0
G2 F800.0 X353.2178 Y437.6212 I342.6128 J206.3822
G0 Z3.0
G0 X-198.501 Y-39.4465
G1 F300.0 Z4.0
G2 F800.0 X-79.0457 Y305.3581 I448.039 J37.8744
G0 Z3.0
G0 X-338.1812 Y338.1812
G1 F300.0 Z3.6
G2 F800.0 X37.6822 Y199.2272 I88.9244 J-337.2865
G0 Z3.0
G0 X-37.8427 Y198.164
G1 F300.0 Z3.2
G2 F800.0 X306.5888 Y79.2227 I43.8402 J-431.2217
G0 Z3.0
G0 X339.0323 Y337.6138
G2 X200.0149 Y-38.3007 I-337.4801 J-88.8584
G0 X-317.7541 Y394.0151
G2 X101.4142 Y189.7541 I69.8875 J-388.805
G0 X88.4823 Y-88.8907
G1 F300.0 Z3.6
G2 F800.0 X-245.4083 Y-1.4185 I-88.869 J341.7618
G0 Z3.0
G0 X-143.0046 Y-70.1753
G1 F300.0 Z3.2
G2 F800.0 X-37.1274 Y277.7898 I379.1984 J74.7097
G0 Z3.0
G0 X89.2598 Y88.7218
G1 F300.0 Z3.2
G2 F800.0 X0.9079 Y-245.5786 I-346.3389 J-87.2918
G0 Z3.0
G0 X37.7998 Y-200.1065
G2 X-304.9872 Y-81.5664 I-33.9518 J456.7155
G0 X69.3334 Y-143.5713
G2 X-277.3256 Y-39.01 I-71.8932 J388.5788
G0 X-88.6772 Y-89.0406
G1 F300.0 Z3.2
G2 F800.0 X0.453 Y244.4409 I338.4211 J88.2014
G0 Z3.0
G0 X-68.848 Y143.409
G2 X278.9931 Y37.0594 I74.3104 J-378.973
G0 X-88.4062 Y88.3955
G2 X245.4286 Y-0.8702 I89.4474 J-334.3545
G0 X-339.1863 Y-338.2009
G1 F300.0 Z3.6
G2 F800.0 X-198.4095 Y37.3686 I338.7067 J87.2095
G0 Z3.0
G0 X-393.5004 Y-319.0787
G1 F300.0 Z3.6
G2 F800.0 X-187.851 Y102.6594 I389.2802 J71.1867
G0 Z3.0
G0 X-375.0379 Y0.1072
G1 F300.0 Z4.0
G2 F800.0 X417.0523 Y417.7616 I375.1638 J248.429
G0 Z3.0
G0 X0.7093 Y375.2052
G1 F300.0 Z3.6
G2 F800.0 X418.5829 Y-417.2274 I248.7399 J-375.2269
G0 Z3.0
G0 X373.9285 Y-1.1348
G1 F300.0 Z3.2
G2 F800.0 X-417.0523 Y-418.1871 I-373.354 J-250.5101
G0 Z3.0
G0 X447.551 Y289.3832
G2 X168.0105 Y-166.9916 I-441.026 J-43.661
G0 X-41.9889 Y-342.1531
G1 F300.0 Z3.6
G2 F800.0 X-436.3445 Y354.0689 I-206.9188 J342.5935
G0 Z3.0
G0 X-447.1255 Y-289.3832
G1 F300.0 Z4.0
G2 F800.0 X-167.2071 Y167.2381 I440.6195 J43.9997
G0 Z3.0
G0 X-306.0312 Y80.7547
G1 F300.0 Z3.6
G2 F800.0 X285.8369 Y450.3881 I306.1607 J168.4414
G0 Z3.0
G0 X-287.7945 Y448.4873
G1 F300.0 Z3.2
G2 F800.0 X166.166 Y169.708 I38.6473 J-446.0686
G0 Z3.0
G0 X80.0 Y305.9412
G2 X448.3619 Y-288.3619 I172.0287 J-304.6837
G0 X40.0 Y340.0
G2 X438.6791 Y-352.7037 I209.9408 J-340.2504
G0 X-80.5734 Y-305.2709
G1 F300.0 Z3.6
G2 F800.0 X-448.8277 Y287.1136 I-170.2189 J304.8383
G0 Z3.0
G0 X-342.3916 Y43.1686
G1 F300.0 Z3.6
G2 F800.0 X353.2178 Y437.6212 I342.6128 J206.3822
G0 Z3.0
G0 X-198.501 Y-39.4465
G1 F300.0 Z3.6
G2 F800.0 X-79.0457 Y305.3581 I448.039 J37.8744
G0 Z3.0
G0 X-338.1812 Y338.1812
G1 F300.0 Z3.2
G2 F800.0 X37.6822 Y199.2272 I88.9244 J-337.2865
G0 Z3.0
G0 X-37.8427 Y198.164
G2 X306.5888 Y79.2227 I43.8402 J-431.2217
G0 X88.4823 Y-88.8907
G1 F300.0 Z3.2
G2 F800.0 X-245.4083 Y-1.4185 I-88.869 J341.7618
G0 Z3.0
G0 X-143.0046 Y-70.1753
G2 X-37.1274 Y277.7898 I379.1984 J74.7097
G0 X89.2598 Y88.7218
G2 X0.9079 Y-245.5786 I-346.3389 J-87.2918
G0 X-88.6772 Y-89.0406
G2 X0.453 Y244.4409 I338.4211 J88.2014
G0 X-339.1863 Y-338.2009
G1 F300.0 Z3.2
G2 F800.0 X-198.4095 Y37.3686 I338.7067 J87.2095
G0 Z3.0
G0 X-393.5004 Y-319.0787
G1 F300.0 Z3.2
G2 F800.0 X-187.851 Y102.6594 I389.2802 J71.1867
G0 Z3.0
G0 X-375.0379 Y0.1072
G1 F300.0 Z3.6
G2 F800.0 X417.0523 Y417.7616 I375.1638 J248.429
G0 Z3.0
G0 X0.7093 Y375.2052
G1 F300.0 Z3.2
G2 F800.0 X418.5829 Y-417.2274 I248.7399 J-375.2269
G0 Z3.0
G0 X373.9285 Y-1.1348
G2 X-417.0523 Y-418.1871 I-373.354 J-250.5101
G0 X-41.9889 Y-342.1531
G1 F300.0 Z3.2
G2 F800.0 X-436.3445 Y354.0689 I-206.9188 J342.5935
G0 Z3.0
G0 X-447.1255 Y-289.3832
G1 F300.0 Z3.6
G2 F800.0 X-167.2071 Y167.2381 I440.6195 J43.9997
G0 Z3.0
G0 X-306.0312 Y80.7547
G1 F300.0 Z3.2
G2 F800.0 X285.8369 Y450.3881 I306.1607 J168.4414
G0 Z3.0
G0 X-287.7945 Y448.4873
G2 X166.166 Y169.708 I38.6473 J-446.0686
G0 X-198.501 Y-39.4465
G1 F300.0 Z3.2
G2 F800.0 X-79.0457 Y305.3581 I448.039 J37.8744
G0 Z3.0
G0 X-338.1812 Y338.1812
G2 X37.6822 Y199.2272 I88.9244 J-337.2865
G0 X88.4823 Y-88.8907
G2 X-245.4083 Y-1.4185 I-88.869 J341.7618
G0 X-342.3916 Y43.1686
G1 F300.0 Z3.2
G2 F800.0 X353.2178 Y437.6212 I342.6128 J206.3822
G0 Z3.0
G0 X-375.0379 Y0.1072
G1 F300.0 Z3.2
G2 F800.0 X417.0523 Y417.7616 I375.1638 J248.429
G0 Z3.0
G0 X0.7093 Y375.2052
G2 X418.5829 Y-417.2274 I248.7399 J-375.2269
G0 X-41.9889 Y-342.1531
G2 X-436.3445 Y354.0689 I-206.9188 J342.5935
G0 X-447.1255 Y-289.3832
G1 F300.0 Z3.2
G2 F800.0 X-167.2071 Y167.2381 I440.6195 J43.9997
G0 Z3.0
G0 X-306.0312 Y80.7547
G2 X285.8369 Y450.3881 I306.1607 J168.4414
G0 X-198.501 Y-39.4465
G2 X-79.0457 Y305.3581 I448.039 J37.8744
G0 X-342.3916 Y43.1686
G2 X353.2178 Y437.6212 I342.6128 J206.3822
G0 X-375.0379 Y0.1072
G2 X417.0523 Y417.7616 I375.1638 J248.429
G0 X-80.5734 Y-305.2709
G1 F300.0 Z3.2
G2 F800.0 X-448.8277 Y287.1136 I-170.2189 J304.8383
G0 Z3.0
G0 X-447.1255 Y-289.3832
G2 X-167.2071 Y167.2381 I440.6195 J43.9997
G0 X-80.5734 Y-305.2709
G2 X-448.8277 Y287.1136 I-170.2189 J304.8383
G0 X-393.5004 Y-319.0787
G2 X-187.851 Y102.6594 I389.2802 J71.1867
G0 X-339.1863 Y-338.2009
G2 X-198.4095 Y37.3686 I338.7067 J87.2095
M5
M30
